(/Applications/pcbgcode.repo/pcb-gcode.ulp)
(Copyright 2005 - 2012 by John Johnson)
(See readme.txt for licensing terms.)
(This file generated from the board:)
(.../MFOS_VCO_Shapers/mfos_vco_shapers.brd)
(Current profile is .../pcbgcode.repo/profiles/mach.pp  )
(This file generated 10/2/15 12:49 AM)
(Settings from pcb-machine.h)
(spindle on time = 0.0000)
(spindle speed = 20000.0000)
(tool change at 0.0000  0.0000  3.0000  )
(feed rate xy = F0     )
(feed rate z  = F20    )
(Z Axis Settings)
(  High     Up        Down     Drill)
(1.0000  	0.0500  	-0.0040 	-0.0730 )
(Settings from pcb-defaults.h)
(isolate min = 0.0010)
(isolate max = 0.0150)
(isolate step = 0.0015)
(Generated bottom outlines, bottom drill, )
(Unit of measure: inch)
( Tool|       Size       |  Min Sub |  Max Sub |   Count )
( T01 | 0.800mm 0.0315in | 0.0000in | 0.0000in |       0 )
( T02 | 0.813mm 0.0320in | 0.0000in | 0.0000in |       0 )
( T03 | 1.016mm 0.0400in | 0.0000in | 0.0000in |       0 )
( T04 | 1.200mm 0.0472in | 0.0000in | 0.0000in |       0 )
( T05 | 1.300mm 0.0512in | 0.0000in | 0.0000in |       0 )
(Inch Mode)
G20
(Absolute Coordinates)
G90
S20000
G00 Z1.0000  
G00 X0.0000  Y0.0000  
M03
G04 P0.000000
M05
G00 Z3.0000  
M06 T01  ; 0.0315  
G01 Z0.0000  F20    
M06 
G00 Z0.0500  
M03
G04 P0.000000
G82 X-0.5750 Y1.5250  Z-0.0730 F20    R0.0500  P0.010000
G82 X-0.6700 Y1.5250  
G82 X-0.9000 Y1.4500  
G82 X-0.5750 Y1.8000  
G82 X-0.6700 Y2.1150  
G82 X-1.3500 Y1.2750  
G82 X-1.3500 Y0.9250  
G82 X-0.7250 Y0.7500  
G82 X-1.7600 Y1.6000  
G82 X-1.7600 Y1.9700  
G82 X-2.4500 Y1.8500  
G82 X-2.5500 Y1.9300  
G82 X-2.4500 Y1.6200  
G82 X-2.5500 Y1.1800  
G82 X-2.3250 Y1.1850  
G82 X-2.0300 Y1.1850  
M05
G00 Z3.0000  
G00 X0.0000  Y0.0000  
M06 T02  ; 0.0320  
G01 Z0.0000  F20    
M06 
G00 Z0.0500  
M03
G04 P0.000000
G82 X-0.2250 Y1.4750  Z-0.0730 F20    R0.0500  P0.010000
G82 X-0.3000 Y1.5000  
G82 X-0.4500 Y1.2750  
G82 X-0.6000 Y1.2500  
G82 X-0.6000 Y1.0500  
G82 X-0.4500 Y0.9750  
G82 X-0.3000 Y1.2000  
G82 X-0.8250 Y1.1750  
G82 X-0.8250 Y1.2750  
G82 X-0.8250 Y1.0750  
G82 X-0.8250 Y0.9750  
G82 X-1.1250 Y0.9750  
G82 X-1.1250 Y1.0750  
G82 X-1.1250 Y1.1750  
G82 X-1.1250 Y1.2750  
G82 X-1.0450 Y1.4100  
G82 X-1.0000 Y1.5500  
G82 X-0.9000 Y1.5500  
G82 X-0.7700 Y1.6750  
G82 X-0.7700 Y1.8750  
G82 X-0.9000 Y1.8500  
G82 X-1.0000 Y1.8500  
G82 X-1.1000 Y1.8500  
G82 X-1.2000 Y1.8500  
G82 X-1.2500 Y1.9750  
G82 X-1.3450 Y1.8350  
G82 X-1.4900 Y1.8000  
G82 X-1.6450 Y1.8000  
G82 X-1.6450 Y1.6000  
G82 X-1.4900 Y1.6000  
G82 X-1.3450 Y1.5350  
G82 X-1.2000 Y1.5500  
G82 X-1.1000 Y1.5500  
G82 X-1.2450 Y1.4100  
G82 X-1.5000 Y1.1250  
G82 X-1.5000 Y0.8250  
G82 X-1.6500 Y0.8000  
G82 X-1.8700 Y0.9850  
G82 X-1.9800 Y1.0700  
G82 X-1.9750 Y1.2950  
G82 X-1.8700 Y1.2850  
G82 X-2.0250 Y1.4350  
G82 X-2.0250 Y1.5500  
G82 X-2.1250 Y1.5500  
G82 X-2.2250 Y1.5500  
G82 X-2.3250 Y1.5500  
G82 X-2.4350 Y1.4550  
G82 X-2.4350 Y1.2550  
G82 X-2.2750 Y1.2950  
G82 X-2.2250 Y1.4350  
G82 X-2.2800 Y1.0700  
G82 X-2.5150 Y1.0550  
G82 X-2.6750 Y1.0500  
G82 X-2.6750 Y1.1500  
G82 X-2.6750 Y1.2500  
G82 X-2.6750 Y1.3500  
G82 X-2.6750 Y1.4500  
G82 X-2.6750 Y1.5500  
G82 X-2.6750 Y1.6500  
G82 X-2.6750 Y1.7850  
G82 X-2.7500 Y1.9450  
G82 X-2.8500 Y1.9450  
G82 X-2.9500 Y1.9450  
G82 X-3.0800 Y1.9750  
G82 X-3.1800 Y2.1000  
G82 X-2.9500 Y2.1550  
G82 X-2.8500 Y2.1550  
G82 X-2.7500 Y2.1550  
G82 X-2.6000 Y2.0900  
G82 X-2.6000 Y2.2250  
G82 X-2.7500 Y2.3650  
G82 X-2.8500 Y2.3650  
G82 X-2.9500 Y2.3650  
G82 X-3.1800 Y2.4000  
G82 X-3.1750 Y1.8000  
G82 X-3.0800 Y1.6750  
G82 X-2.9750 Y1.6500  
G82 X-2.9750 Y1.5500  
G82 X-2.9750 Y1.4500  
G82 X-2.9750 Y1.3500  
G82 X-2.9750 Y1.2500  
G82 X-2.9750 Y1.1500  
G82 X-2.9750 Y1.0500  
G82 X-2.9750 Y0.9500  
G82 X-3.1250 Y0.8500  
G82 X-3.2500 Y0.9700  
G82 X-3.1250 Y1.1500  
G82 X-3.2500 Y1.2700  
G82 X-3.1000 Y1.4250  
G82 X-3.1000 Y1.5500  
G82 X-2.9750 Y1.7850  
G82 X-3.4000 Y1.5500  
G82 X-3.4000 Y1.4250  
G82 X-3.4750 Y1.8000  
G82 X-2.3250 Y1.8500  
G82 X-2.2250 Y1.8500  
G82 X-2.1250 Y1.8500  
G82 X-2.0250 Y1.8500  
G82 X-1.8750 Y1.8000  
G82 X-1.8750 Y1.6000  
G82 X-1.8600 Y2.0550  
G82 X-1.9650 Y2.2350  
G82 X-2.0650 Y2.2350  
G82 X-2.1650 Y2.2350  
G82 X-2.3000 Y2.2250  
G82 X-2.3000 Y2.0900  
G82 X-2.1600 Y2.0550  
G82 X-1.0500 Y1.9750  
G82 X-0.2250 Y1.7750  
G82 X-0.6450 Y0.4600  
G82 X-0.9450 Y0.4600  
G82 X-1.9500 Y0.8000  
G82 X-2.5150 Y0.7550  
G82 X-2.6750 Y0.9500  
M05
G00 Z3.0000  
G00 X0.0000  Y0.0000  
M06 T03  ; 0.0400  
G01 Z0.0000  F20    
M06 
G00 Z0.0500  
M03
G04 P0.000000
G82 X-0.4400 Y1.5000  Z-0.0730 F20    R0.0500  P0.010000
G82 X-0.4500 Y1.4000  
G82 X-0.4500 Y1.6000  
G82 X-0.4400 Y1.7000  
G82 X-0.4500 Y1.8000  
M05
G00 Z3.0000  
G00 X0.0000  Y0.0000  
M06 T04  ; 0.0472  
G01 Z0.0000  F20    
M06 
G00 Z0.0500  
M03
G04 P0.000000
G82 X-0.3781 Y0.1000  Z-0.0730 F20    R0.0500  P0.010000
G82 X-0.5750 Y0.1000  
G82 X-0.7719 Y0.1000  
M05
G00 Z3.0000  
G00 X0.0000  Y0.0000  
M06 T05  ; 0.0512  
G01 Z0.0000  F20    
M06 
G00 Z0.0500  
M03
G04 P0.000000
G82 X-1.1950 Y0.0980  Z-0.0730 F20    R0.0500  P0.010000
G82 X-1.2281 Y0.0984  
G82 X-1.2620 Y0.0980  
G82 X-1.6950 Y0.0980  
G82 X-1.7281 Y0.0984  
G82 X-1.7620 Y0.0980  
G82 X-1.9330 Y0.4980  
G82 X-1.9329 Y0.5315  
G82 X-1.9330 Y0.5650  
G82 X-1.7610 Y0.6180  
G82 X-1.7281 Y0.6181  
G82 X-1.6950 Y0.6180  
G82 X-1.4330 Y0.5650  
G82 X-1.4329 Y0.5315  
G82 X-1.4330 Y0.4980  
G82 X-1.2610 Y0.6180  
G82 X-1.2281 Y0.6181  
G82 X-1.1950 Y0.6180  
G82 X-2.2950 Y0.6180  
G82 X-2.3281 Y0.6181  
G82 X-2.3610 Y0.6180  
G82 X-2.5330 Y0.5650  
G82 X-2.5329 Y0.5315  
G82 X-2.5330 Y0.4980  
G82 X-2.8700 Y0.6180  
G82 X-2.9031 Y0.6181  
G82 X-2.9360 Y0.6180  
G82 X-3.1080 Y0.5650  
G82 X-3.1079 Y0.5315  
G82 X-3.1080 Y0.4980  
G82 X-2.9370 Y0.0980  
G82 X-2.9031 Y0.0984  
G82 X-2.8700 Y0.0980  
G82 X-2.3620 Y0.0980  
G82 X-2.3281 Y0.0984  
G82 X-2.2950 Y0.0980  
T01 
G00 Z1.0000  
M05
M02
