( Made using CamBam - http://www.cambam.co.uk )
( vco_shapers_panel 11/28/2015 9:26:44 PM )
( T3 : 3.175 )
G21 G90 G64 G40
G0 Z3.0
( T3 : 3.175 )
T3 M6
( holes )
G17
M3 S1000
G0 X9.8339 Y3.6587
G0 Z3.0
G0 X9.8464 Y3.6587
G1 F1000.0 Z0.0
G2 F2000.0 X9.8277 Y3.6478 Z-0.0333 I-0.0125 J0.0
G2 Y3.6695 Z-0.0667 I0.0062 J0.0108
G2 X9.8464 Y3.6587 Z-0.1 I0.0062 J-0.0108
G2 X9.8277 Y3.6478 Z-0.1333 I-0.0125 J0.0
G2 Y3.6695 Z-0.1667 I0.0062 J0.0108
G2 X9.8464 Y3.6587 Z-0.2 I0.0062 J-0.0108
G2 X9.8277 Y3.6478 Z-0.2333 I-0.0125 J0.0
G2 Y3.6695 Z-0.2667 I0.0062 J0.0108
G2 X9.8464 Y3.6587 Z-0.3 I0.0062 J-0.0108
G2 X9.8277 Y3.6478 Z-0.3333 I-0.0125 J0.0
G2 Y3.6695 Z-0.3667 I0.0062 J0.0108
G2 X9.8464 Y3.6587 Z-0.4 I0.0062 J-0.0108
G2 X9.8277 Y3.6478 Z-0.4333 I-0.0125 J0.0
G2 Y3.6695 Z-0.4667 I0.0062 J0.0108
G2 X9.8464 Y3.6587 Z-0.5 I0.0062 J-0.0108
G2 X9.8277 Y3.6478 Z-0.5333 I-0.0125 J0.0
G2 Y3.6695 Z-0.5667 I0.0062 J0.0108
G2 X9.8464 Y3.6587 Z-0.6 I0.0062 J-0.0108
G2 X9.8277 Y3.6478 Z-0.6333 I-0.0125 J0.0
G2 Y3.6695 Z-0.6667 I0.0062 J0.0108
G2 X9.8464 Y3.6587 Z-0.7 I0.0062 J-0.0108
G2 X9.8277 Y3.6478 Z-0.7333 I-0.0125 J0.0
G2 Y3.6695 Z-0.7667 I0.0062 J0.0108
G2 X9.8464 Y3.6587 Z-0.8 I0.0062 J-0.0108
G2 X9.8277 Y3.6478 Z-0.8333 I-0.0125 J0.0
G2 Y3.6695 Z-0.8667 I0.0062 J0.0108
G2 X9.8464 Y3.6587 Z-0.9 I0.0062 J-0.0108
G2 X9.8277 Y3.6478 Z-0.9333 I-0.0125 J0.0
G2 Y3.6695 Z-0.9667 I0.0062 J0.0108
G2 X9.8464 Y3.6587 Z-1.0 I0.0062 J-0.0108
G2 X9.8277 Y3.6478 Z-1.0333 I-0.0125 J0.0
G2 Y3.6695 Z-1.0667 I0.0062 J0.0108
G2 X9.8464 Y3.6587 Z-1.1 I0.0062 J-0.0108
G2 X9.8277 Y3.6478 Z-1.1333 I-0.0125 J0.0
G2 Y3.6695 Z-1.1667 I0.0062 J0.0108
G2 X9.8464 Y3.6587 Z-1.2 I0.0062 J-0.0108
G2 X9.8277 Y3.6478 Z-1.2333 I-0.0125 J0.0
G2 Y3.6695 Z-1.2667 I0.0062 J0.0108
G2 X9.8464 Y3.6587 Z-1.3 I0.0062 J-0.0108
G2 X9.8277 Y3.6478 Z-1.3333 I-0.0125 J0.0
G2 Y3.6695 Z-1.3667 I0.0062 J0.0108
G2 X9.8464 Y3.6587 Z-1.4 I0.0063 J-0.0108
G2 X9.8277 Y3.6478 Z-1.4333 I-0.0125 J0.0
G2 Y3.6695 Z-1.4667 I0.0062 J0.0108
G2 X9.8464 Y3.6587 Z-1.5 I0.0063 J-0.0108
G2 X9.8277 Y3.6478 Z-1.5333 I-0.0125 J0.0
G2 Y3.6695 Z-1.5667 I0.0062 J0.0108
G2 X9.8464 Y3.6587 Z-1.6 I0.0063 J-0.0108
G2 X9.8277 Y3.6478 Z-1.6333 I-0.0125 J0.0
G2 Y3.6695 Z-1.6667 I0.0062 J0.0108
G2 X9.8464 Y3.6587 Z-1.7 I0.0063 J-0.0108
G2 X9.8277 Y3.6478 Z-1.7333 I-0.0125 J0.0
G2 Y3.6695 Z-1.7667 I0.0062 J0.0108
G2 X9.8464 Y3.6587 Z-1.8 I0.0063 J-0.0108
G2 X9.8277 Y3.6478 Z-1.8333 I-0.0125 J0.0
G2 Y3.6695 Z-1.8667 I0.0062 J0.0108
G2 X9.8464 Y3.6587 Z-1.9 I0.0063 J-0.0108
G2 X9.8277 Y3.6478 Z-1.9333 I-0.0125 J0.0
G2 Y3.6695 Z-1.9667 I0.0062 J0.0108
G2 X9.8464 Y3.6587 Z-2.0 I0.0063 J-0.0108
G2 X9.8277 Y3.6478 Z-2.0333 I-0.0125 J0.0
G2 Y3.6695 Z-2.0667 I0.0062 J0.0108
G2 X9.8464 Y3.6587 Z-2.1 I0.0063 J-0.0108
G2 X9.8277 Y3.6478 Z-2.1333 I-0.0125 J0.0
G2 Y3.6695 Z-2.1667 I0.0062 J0.0108
G2 X9.8464 Y3.6587 Z-2.2 I0.0062 J-0.0108
G2 X9.8277 Y3.6478 Z-2.2333 I-0.0125 J0.0
G2 Y3.6695 Z-2.2667 I0.0062 J0.0108
G2 X9.8464 Y3.6587 Z-2.3 I0.0062 J-0.0108
G2 X9.8277 Y3.6478 Z-2.3333 I-0.0125 J0.0
G2 Y3.6695 Z-2.3667 I0.0062 J0.0108
G2 X9.8464 Y3.6587 Z-2.4 I0.0062 J-0.0108
G2 X9.8277 Y3.6478 Z-2.4333 I-0.0125 J0.0
G2 Y3.6695 Z-2.4667 I0.0062 J0.0108
G2 X9.8464 Y3.6587 Z-2.5 I0.0062 J-0.0108
G2 X9.8277 Y3.6478 Z-2.5333 I-0.0125 J0.0
G2 Y3.6695 Z-2.5667 I0.0063 J0.0108
G2 X9.8464 Y3.6587 Z-2.6 I0.0062 J-0.0108
G2 X9.8277 Y3.6478 Z-2.6333 I-0.0125 J0.0
G2 Y3.6695 Z-2.6667 I0.0063 J0.0108
G2 X9.8464 Y3.6587 Z-2.7 I0.0062 J-0.0108
G2 X9.8277 Y3.6478 Z-2.7333 I-0.0125 J0.0
G2 Y3.6695 Z-2.7667 I0.0063 J0.0108
G2 X9.8464 Y3.6587 Z-2.8 I0.0062 J-0.0108
G2 X9.8277 Y3.6478 Z-2.8333 I-0.0125 J0.0
G2 Y3.6695 Z-2.8667 I0.0063 J0.0108
G2 X9.8464 Y3.6587 Z-2.9 I0.0062 J-0.0108
G2 X9.8277 Y3.6478 Z-2.9333 I-0.0125 J0.0
G2 Y3.6695 Z-2.9667 I0.0063 J0.0108
G2 X9.8464 Y3.6587 Z-3.0 I0.0062 J-0.0108
G2 X9.8277 Y3.6478 Z-3.0333 I-0.0125 J0.0
G2 Y3.6695 Z-3.0667 I0.0063 J0.0108
G2 X9.8464 Y3.6587 Z-3.1 I0.0062 J-0.0108
G2 X9.8277 Y3.6478 Z-3.1333 I-0.0125 J0.0
G2 Y3.6695 Z-3.1667 I0.0063 J0.0108
G2 X9.8464 Y3.6587 Z-3.2 I0.0062 J-0.0108
G2 X9.8277 Y3.6478 I-0.0125 J0.0
G2 Y3.6695 I0.0063 J0.0108
G2 X9.8464 Y3.6587 I0.0062 J-0.0108
G0 Z3.0
G0 X24.9736 Y29.6539
G1 F1000.0 Z0.0
G2 F2000.0 X24.9548 Y29.643 Z-0.0333 I-0.0125 J0.0
G2 Y29.6647 Z-0.0667 I0.0062 J0.0108
G2 X24.9736 Y29.6539 Z-0.1 I0.0063 J-0.0108
G2 X24.9548 Y29.643 Z-0.1333 I-0.0125 J0.0
G2 Y29.6647 Z-0.1667 I0.0062 J0.0108
G2 X24.9736 Y29.6539 Z-0.2 I0.0063 J-0.0108
G2 X24.9548 Y29.643 Z-0.2333 I-0.0125 J0.0
G2 Y29.6647 Z-0.2667 I0.0062 J0.0108
G2 X24.9736 Y29.6539 Z-0.3 I0.0063 J-0.0108
G2 X24.9548 Y29.643 Z-0.3333 I-0.0125 J0.0
G2 Y29.6647 Z-0.3667 I0.0062 J0.0108
G2 X24.9736 Y29.6539 Z-0.4 I0.0063 J-0.0108
G2 X24.9548 Y29.643 Z-0.4333 I-0.0125 J0.0
G2 Y29.6647 Z-0.4667 I0.0062 J0.0108
G2 X24.9736 Y29.6539 Z-0.5 I0.0063 J-0.0108
G2 X24.9548 Y29.643 Z-0.5333 I-0.0125 J0.0
G2 Y29.6647 Z-0.5667 I0.0062 J0.0108
G2 X24.9736 Y29.6539 Z-0.6 I0.0063 J-0.0108
G2 X24.9548 Y29.643 Z-0.6333 I-0.0125 J0.0
G2 Y29.6647 Z-0.6667 I0.0062 J0.0108
G2 X24.9736 Y29.6539 Z-0.7 I0.0063 J-0.0108
G2 X24.9548 Y29.643 Z-0.7333 I-0.0125 J0.0
G2 Y29.6647 Z-0.7667 I0.0062 J0.0108
G2 X24.9736 Y29.6539 Z-0.8 I0.0063 J-0.0108
G2 X24.9548 Y29.643 Z-0.8333 I-0.0125 J0.0
G2 Y29.6647 Z-0.8667 I0.0062 J0.0108
G2 X24.9736 Y29.6539 Z-0.9 I0.0063 J-0.0108
G2 X24.9548 Y29.643 Z-0.9333 I-0.0125 J0.0
G2 Y29.6647 Z-0.9667 I0.0062 J0.0108
G2 X24.9736 Y29.6539 Z-1.0 I0.0063 J-0.0108
G2 X24.9548 Y29.643 Z-1.0333 I-0.0125 J0.0
G2 Y29.6647 Z-1.0667 I0.0062 J0.0108
G2 X24.9736 Y29.6539 Z-1.1 I0.0063 J-0.0108
G2 X24.9548 Y29.643 Z-1.1333 I-0.0125 J0.0
G2 Y29.6647 Z-1.1667 I0.0062 J0.0108
G2 X24.9736 Y29.6539 Z-1.2 I0.0063 J-0.0108
G2 X24.9548 Y29.643 Z-1.2333 I-0.0125 J0.0
G2 Y29.6647 Z-1.2667 I0.0062 J0.0108
G2 X24.9736 Y29.6539 Z-1.3 I0.0063 J-0.0108
G2 X24.9548 Y29.643 Z-1.3333 I-0.0125 J0.0
G2 Y29.6647 Z-1.3667 I0.0062 J0.0108
G2 X24.9736 Y29.6539 Z-1.4 I0.0063 J-0.0108
G2 X24.9548 Y29.643 Z-1.4333 I-0.0125 J0.0
G2 Y29.6647 Z-1.4667 I0.0062 J0.0108
G2 X24.9736 Y29.6539 Z-1.5 I0.0063 J-0.0108
G2 X24.9548 Y29.643 Z-1.5333 I-0.0125 J0.0
G2 Y29.6647 Z-1.5667 I0.0062 J0.0108
G2 X24.9736 Y29.6539 Z-1.6 I0.0063 J-0.0108
G2 X24.9548 Y29.643 Z-1.6333 I-0.0125 J0.0
G2 Y29.6647 Z-1.6667 I0.0062 J0.0108
G2 X24.9736 Y29.6539 Z-1.7 I0.0063 J-0.0108
G2 X24.9548 Y29.643 Z-1.7333 I-0.0125 J0.0
G2 Y29.6647 Z-1.7667 I0.0062 J0.0108
G2 X24.9736 Y29.6539 Z-1.8 I0.0063 J-0.0108
G2 X24.9548 Y29.643 Z-1.8333 I-0.0125 J0.0
G2 Y29.6647 Z-1.8667 I0.0062 J0.0108
G2 X24.9736 Y29.6539 Z-1.9 I0.0063 J-0.0108
G2 X24.9548 Y29.643 Z-1.9333 I-0.0125 J0.0
G2 Y29.6647 Z-1.9667 I0.0062 J0.0108
G2 X24.9736 Y29.6539 Z-2.0 I0.0063 J-0.0108
G2 X24.9548 Y29.643 Z-2.0333 I-0.0125 J0.0
G2 Y29.6647 Z-2.0667 I0.0062 J0.0108
G2 X24.9736 Y29.6539 Z-2.1 I0.0063 J-0.0108
G2 X24.9548 Y29.643 Z-2.1333 I-0.0125 J0.0
G2 Y29.6647 Z-2.1667 I0.0062 J0.0108
G2 X24.9736 Y29.6539 Z-2.2 I0.0063 J-0.0108
G2 X24.9548 Y29.643 Z-2.2333 I-0.0125 J0.0
G2 Y29.6647 Z-2.2667 I0.0062 J0.0108
G2 X24.9736 Y29.6539 Z-2.3 I0.0063 J-0.0108
G2 X24.9548 Y29.643 Z-2.3333 I-0.0125 J0.0
G2 Y29.6647 Z-2.3667 I0.0062 J0.0108
G2 X24.9736 Y29.6539 Z-2.4 I0.0063 J-0.0108
G2 X24.9548 Y29.643 Z-2.4333 I-0.0125 J0.0
G2 Y29.6647 Z-2.4667 I0.0063 J0.0108
G2 X24.9736 Y29.6539 Z-2.5 I0.0062 J-0.0108
G2 X24.9548 Y29.643 Z-2.5333 I-0.0125 J0.0
G2 Y29.6647 Z-2.5667 I0.0063 J0.0108
G2 X24.9736 Y29.6539 Z-2.6 I0.0062 J-0.0108
G2 X24.9548 Y29.643 Z-2.6333 I-0.0125 J0.0
G2 Y29.6647 Z-2.6667 I0.0063 J0.0108
G2 X24.9736 Y29.6539 Z-2.7 I0.0062 J-0.0108
G2 X24.9548 Y29.643 Z-2.7333 I-0.0125 J0.0
G2 Y29.6647 Z-2.7667 I0.0063 J0.0108
G2 X24.9736 Y29.6539 Z-2.8 I0.0062 J-0.0108
G2 X24.9548 Y29.643 Z-2.8333 I-0.0125 J0.0
G2 Y29.6647 Z-2.8667 I0.0063 J0.0108
G2 X24.9736 Y29.6539 Z-2.9 I0.0062 J-0.0108
G2 X24.9548 Y29.643 Z-2.9333 I-0.0125 J0.0
G2 Y29.6647 Z-2.9667 I0.0063 J0.0108
G2 X24.9736 Y29.6539 Z-3.0 I0.0062 J-0.0108
G2 X24.9548 Y29.643 Z-3.0333 I-0.0125 J0.0
G2 Y29.6647 Z-3.0667 I0.0063 J0.0108
G2 X24.9736 Y29.6539 Z-3.1 I0.0062 J-0.0108
G2 X24.9548 Y29.643 Z-3.1333 I-0.0125 J0.0
G2 Y29.6647 Z-3.1667 I0.0063 J0.0108
G2 X24.9736 Y29.6539 Z-3.2 I0.0062 J-0.0108
G2 X24.9548 Y29.643 I-0.0125 J0.0
G2 Y29.6647 I0.0063 J0.0108
G2 X24.9736 Y29.6539 I0.0062 J-0.0108
G0 Z3.0
G0 X24.9356 Y42.4506
G1 F1000.0 Z0.0
G2 F2000.0 X24.9169 Y42.4398 Z-0.0333 I-0.0125 J0.0
G2 Y42.4614 Z-0.0667 I0.0063 J0.0108
G2 X24.9356 Y42.4506 Z-0.1 I0.0062 J-0.0108
G2 X24.9169 Y42.4398 Z-0.1333 I-0.0125 J0.0
G2 Y42.4614 Z-0.1667 I0.0063 J0.0108
G2 X24.9356 Y42.4506 Z-0.2 I0.0062 J-0.0108
G2 X24.9169 Y42.4398 Z-0.2333 I-0.0125 J0.0
G2 Y42.4614 Z-0.2667 I0.0063 J0.0108
G2 X24.9356 Y42.4506 Z-0.3 I0.0062 J-0.0108
G2 X24.9169 Y42.4398 Z-0.3333 I-0.0125 J0.0
G2 Y42.4614 Z-0.3667 I0.0063 J0.0108
G2 X24.9356 Y42.4506 Z-0.4 I0.0062 J-0.0108
G2 X24.9169 Y42.4398 Z-0.4333 I-0.0125 J0.0
G2 Y42.4614 Z-0.4667 I0.0063 J0.0108
G2 X24.9356 Y42.4506 Z-0.5 I0.0062 J-0.0108
G2 X24.9169 Y42.4398 Z-0.5333 I-0.0125 J0.0
G2 Y42.4614 Z-0.5667 I0.0063 J0.0108
G2 X24.9356 Y42.4506 Z-0.6 I0.0062 J-0.0108
G2 X24.9169 Y42.4398 Z-0.6333 I-0.0125 J0.0
G2 Y42.4614 Z-0.6667 I0.0063 J0.0108
G2 X24.9356 Y42.4506 Z-0.7 I0.0062 J-0.0108
G2 X24.9169 Y42.4398 Z-0.7333 I-0.0125 J0.0
G2 Y42.4614 Z-0.7667 I0.0063 J0.0108
G2 X24.9356 Y42.4506 Z-0.8 I0.0062 J-0.0108
G2 X24.9169 Y42.4398 Z-0.8333 I-0.0125 J0.0
G2 Y42.4614 Z-0.8667 I0.0063 J0.0108
G2 X24.9356 Y42.4506 Z-0.9 I0.0062 J-0.0108
G2 X24.9169 Y42.4398 Z-0.9333 I-0.0125 J0.0
G2 Y42.4614 Z-0.9667 I0.0063 J0.0108
G2 X24.9356 Y42.4506 Z-1.0 I0.0062 J-0.0108
G2 X24.9169 Y42.4398 Z-1.0333 I-0.0125 J0.0
G2 Y42.4614 Z-1.0667 I0.0063 J0.0108
G2 X24.9356 Y42.4506 Z-1.1 I0.0062 J-0.0108
G2 X24.9169 Y42.4398 Z-1.1333 I-0.0125 J0.0
G2 Y42.4614 Z-1.1667 I0.0063 J0.0108
G2 X24.9356 Y42.4506 Z-1.2 I0.0062 J-0.0108
G2 X24.9169 Y42.4398 Z-1.2333 I-0.0125 J0.0
G2 Y42.4614 Z-1.2667 I0.0063 J0.0108
G2 X24.9356 Y42.4506 Z-1.3 I0.0062 J-0.0108
G2 X24.9169 Y42.4398 Z-1.3333 I-0.0125 J0.0
G2 Y42.4614 Z-1.3667 I0.0063 J0.0108
G2 X24.9356 Y42.4506 Z-1.4 I0.0062 J-0.0108
G2 X24.9169 Y42.4398 Z-1.4333 I-0.0125 J0.0
G2 Y42.4614 Z-1.4667 I0.0063 J0.0108
G2 X24.9356 Y42.4506 Z-1.5 I0.0062 J-0.0108
G2 X24.9169 Y42.4398 Z-1.5333 I-0.0125 J0.0
G2 Y42.4614 Z-1.5667 I0.0063 J0.0108
G2 X24.9356 Y42.4506 Z-1.6 I0.0062 J-0.0108
G2 X24.9169 Y42.4398 Z-1.6333 I-0.0125 J0.0
G2 Y42.4614 Z-1.6667 I0.0063 J0.0108
G2 X24.9356 Y42.4506 Z-1.7 I0.0062 J-0.0108
G2 X24.9169 Y42.4398 Z-1.7333 I-0.0125 J0.0
G2 Y42.4614 Z-1.7667 I0.0063 J0.0108
G2 X24.9356 Y42.4506 Z-1.8 I0.0062 J-0.0108
G2 X24.9169 Y42.4398 Z-1.8333 I-0.0125 J0.0
G2 Y42.4614 Z-1.8667 I0.0063 J0.0108
G2 X24.9356 Y42.4506 Z-1.9 I0.0062 J-0.0108
G2 X24.9169 Y42.4398 Z-1.9333 I-0.0125 J0.0
G2 Y42.4614 Z-1.9667 I0.0063 J0.0108
G2 X24.9356 Y42.4506 Z-2.0 I0.0062 J-0.0108
G2 X24.9169 Y42.4398 Z-2.0333 I-0.0125 J0.0
G2 Y42.4614 Z-2.0667 I0.0063 J0.0108
G2 X24.9356 Y42.4506 Z-2.1 I0.0062 J-0.0108
G2 X24.9169 Y42.4398 Z-2.1333 I-0.0125 J0.0
G2 Y42.4614 Z-2.1667 I0.0063 J0.0108
G2 X24.9356 Y42.4506 Z-2.2 I0.0062 J-0.0108
G2 X24.9169 Y42.4398 Z-2.2333 I-0.0125 J0.0
G2 Y42.4614 Z-2.2667 I0.0063 J0.0108
G2 X24.9356 Y42.4506 Z-2.3 I0.0062 J-0.0108
G2 X24.9169 Y42.4398 Z-2.3333 I-0.0125 J0.0
G2 Y42.4614 Z-2.3667 I0.0063 J0.0108
G2 X24.9356 Y42.4506 Z-2.4 I0.0062 J-0.0108
G2 X24.9169 Y42.4398 Z-2.4333 I-0.0125 J0.0
G2 Y42.4614 Z-2.4667 I0.0063 J0.0108
G2 X24.9356 Y42.4506 Z-2.5 I0.0062 J-0.0108
G2 X24.9169 Y42.4398 Z-2.5333 I-0.0125 J0.0
G2 Y42.4614 Z-2.5667 I0.0063 J0.0108
G2 X24.9356 Y42.4506 Z-2.6 I0.0062 J-0.0108
G2 X24.9169 Y42.4398 Z-2.6333 I-0.0125 J0.0
G2 Y42.4614 Z-2.6667 I0.0063 J0.0108
G2 X24.9356 Y42.4506 Z-2.7 I0.0062 J-0.0108
G2 X24.9169 Y42.4398 Z-2.7333 I-0.0125 J0.0
G2 Y42.4614 Z-2.7667 I0.0063 J0.0108
G2 X24.9356 Y42.4506 Z-2.8 I0.0062 J-0.0108
G2 X24.9169 Y42.4398 Z-2.8333 I-0.0125 J0.0
G2 Y42.4614 Z-2.8667 I0.0063 J0.0108
G2 X24.9356 Y42.4506 Z-2.9 I0.0062 J-0.0108
G2 X24.9169 Y42.4398 Z-2.9333 I-0.0125 J0.0
G2 Y42.4614 Z-2.9667 I0.0063 J0.0108
G2 X24.9356 Y42.4506 Z-3.0 I0.0062 J-0.0108
G2 X24.9169 Y42.4398 Z-3.0333 I-0.0125 J0.0
G2 Y42.4614 Z-3.0667 I0.0063 J0.0108
G2 X24.9356 Y42.4506 Z-3.1 I0.0062 J-0.0108
G2 X24.9169 Y42.4398 Z-3.1333 I-0.0125 J0.0
G2 Y42.4614 Z-3.1667 I0.0063 J0.0108
G2 X24.9356 Y42.4506 Z-3.2 I0.0062 J-0.0108
G2 X24.9169 Y42.4398 I-0.0125 J0.0
G2 Y42.4614 I0.0063 J0.0108
G2 X24.9356 Y42.4506 I0.0062 J-0.0108
G0 Z3.0
G0 X24.9474 Y55.4316
G1 F1000.0 Z0.0
G2 F2000.0 X24.9287 Y55.4208 Z-0.0333 I-0.0125 J0.0
G2 Y55.4424 Z-0.0667 I0.0063 J0.0108
G2 X24.9474 Y55.4316 Z-0.1 I0.0062 J-0.0108
G2 X24.9287 Y55.4208 Z-0.1333 I-0.0125 J0.0
G2 Y55.4424 Z-0.1667 I0.0063 J0.0108
G2 X24.9474 Y55.4316 Z-0.2 I0.0062 J-0.0108
G2 X24.9287 Y55.4208 Z-0.2333 I-0.0125 J0.0
G2 Y55.4424 Z-0.2667 I0.0063 J0.0108
G2 X24.9474 Y55.4316 Z-0.3 I0.0062 J-0.0108
G2 X24.9287 Y55.4208 Z-0.3333 I-0.0125 J0.0
G2 Y55.4424 Z-0.3667 I0.0063 J0.0108
G2 X24.9474 Y55.4316 Z-0.4 I0.0062 J-0.0108
G2 X24.9287 Y55.4208 Z-0.4333 I-0.0125 J0.0
G2 Y55.4424 Z-0.4667 I0.0063 J0.0108
G2 X24.9474 Y55.4316 Z-0.5 I0.0062 J-0.0108
G2 X24.9287 Y55.4208 Z-0.5333 I-0.0125 J0.0
G2 Y55.4424 Z-0.5667 I0.0063 J0.0108
G2 X24.9474 Y55.4316 Z-0.6 I0.0062 J-0.0108
G2 X24.9287 Y55.4208 Z-0.6333 I-0.0125 J0.0
G2 Y55.4424 Z-0.6667 I0.0063 J0.0108
G2 X24.9474 Y55.4316 Z-0.7 I0.0062 J-0.0108
G2 X24.9287 Y55.4208 Z-0.7333 I-0.0125 J0.0
G2 Y55.4424 Z-0.7667 I0.0063 J0.0108
G2 X24.9474 Y55.4316 Z-0.8 I0.0062 J-0.0108
G2 X24.9287 Y55.4208 Z-0.8333 I-0.0125 J0.0
G2 Y55.4424 Z-0.8667 I0.0063 J0.0108
G2 X24.9474 Y55.4316 Z-0.9 I0.0062 J-0.0108
G2 X24.9287 Y55.4208 Z-0.9333 I-0.0125 J0.0
G2 Y55.4424 Z-0.9667 I0.0063 J0.0108
G2 X24.9474 Y55.4316 Z-1.0 I0.0062 J-0.0108
G2 X24.9287 Y55.4208 Z-1.0333 I-0.0125 J0.0
G2 Y55.4424 Z-1.0667 I0.0063 J0.0108
G2 X24.9474 Y55.4316 Z-1.1 I0.0062 J-0.0108
G2 X24.9287 Y55.4208 Z-1.1333 I-0.0125 J0.0
G2 Y55.4424 Z-1.1667 I0.0063 J0.0108
G2 X24.9474 Y55.4316 Z-1.2 I0.0062 J-0.0108
G2 X24.9287 Y55.4208 Z-1.2333 I-0.0125 J0.0
G2 Y55.4424 Z-1.2667 I0.0063 J0.0108
G2 X24.9474 Y55.4316 Z-1.3 I0.0062 J-0.0108
G2 X24.9287 Y55.4208 Z-1.3333 I-0.0125 J0.0
G2 Y55.4424 Z-1.3667 I0.0063 J0.0108
G2 X24.9474 Y55.4316 Z-1.4 I0.0062 J-0.0108
G2 X24.9287 Y55.4208 Z-1.4333 I-0.0125 J0.0
G2 Y55.4424 Z-1.4667 I0.0063 J0.0108
G2 X24.9474 Y55.4316 Z-1.5 I0.0062 J-0.0108
G2 X24.9287 Y55.4208 Z-1.5333 I-0.0125 J0.0
G2 Y55.4424 Z-1.5667 I0.0063 J0.0108
G2 X24.9474 Y55.4316 Z-1.6 I0.0062 J-0.0108
G2 X24.9287 Y55.4208 Z-1.6333 I-0.0125 J0.0
G2 Y55.4424 Z-1.6667 I0.0063 J0.0108
G2 X24.9474 Y55.4316 Z-1.7 I0.0062 J-0.0108
G2 X24.9287 Y55.4208 Z-1.7333 I-0.0125 J0.0
G2 Y55.4424 Z-1.7667 I0.0063 J0.0108
G2 X24.9474 Y55.4316 Z-1.8 I0.0062 J-0.0108
G2 X24.9287 Y55.4208 Z-1.8333 I-0.0125 J0.0
G2 Y55.4424 Z-1.8667 I0.0063 J0.0108
G2 X24.9474 Y55.4316 Z-1.9 I0.0062 J-0.0108
G2 X24.9287 Y55.4208 Z-1.9333 I-0.0125 J0.0
G2 Y55.4424 Z-1.9667 I0.0063 J0.0108
G2 X24.9474 Y55.4316 Z-2.0 I0.0062 J-0.0108
G2 X24.9287 Y55.4208 Z-2.0333 I-0.0125 J0.0
G2 Y55.4424 Z-2.0667 I0.0063 J0.0108
G2 X24.9474 Y55.4316 Z-2.1 I0.0062 J-0.0108
G2 X24.9287 Y55.4208 Z-2.1333 I-0.0125 J0.0
G2 Y55.4424 Z-2.1667 I0.0063 J0.0108
G2 X24.9474 Y55.4316 Z-2.2 I0.0062 J-0.0108
G2 X24.9287 Y55.4208 Z-2.2333 I-0.0125 J0.0
G2 Y55.4424 Z-2.2667 I0.0063 J0.0108
G2 X24.9474 Y55.4316 Z-2.3 I0.0062 J-0.0108
G2 X24.9287 Y55.4208 Z-2.3333 I-0.0125 J0.0
G2 Y55.4424 Z-2.3667 I0.0063 J0.0108
G2 X24.9474 Y55.4316 Z-2.4 I0.0062 J-0.0108
G2 X24.9287 Y55.4208 Z-2.4333 I-0.0125 J0.0
G2 Y55.4424 Z-2.4667 I0.0063 J0.0108
G2 X24.9474 Y55.4316 Z-2.5 I0.0062 J-0.0108
G2 X24.9287 Y55.4208 Z-2.5333 I-0.0125 J0.0
G2 Y55.4424 Z-2.5667 I0.0063 J0.0108
G2 X24.9474 Y55.4316 Z-2.6 I0.0062 J-0.0108
G2 X24.9287 Y55.4208 Z-2.6333 I-0.0125 J0.0
G2 Y55.4424 Z-2.6667 I0.0063 J0.0108
G2 X24.9474 Y55.4316 Z-2.7 I0.0062 J-0.0108
G2 X24.9287 Y55.4208 Z-2.7333 I-0.0125 J0.0
G2 Y55.4424 Z-2.7667 I0.0063 J0.0108
G2 X24.9474 Y55.4316 Z-2.8 I0.0062 J-0.0108
G2 X24.9287 Y55.4208 Z-2.8333 I-0.0125 J0.0
G2 Y55.4424 Z-2.8667 I0.0063 J0.0108
G2 X24.9474 Y55.4316 Z-2.9 I0.0062 J-0.0108
G2 X24.9287 Y55.4208 Z-2.9333 I-0.0125 J0.0
G2 Y55.4424 Z-2.9667 I0.0063 J0.0108
G2 X24.9474 Y55.4316 Z-3.0 I0.0062 J-0.0108
G2 X24.9287 Y55.4208 Z-3.0333 I-0.0125 J0.0
G2 Y55.4424 Z-3.0667 I0.0063 J0.0108
G2 X24.9474 Y55.4316 Z-3.1 I0.0062 J-0.0108
G2 X24.9287 Y55.4208 Z-3.1333 I-0.0125 J0.0
G2 Y55.4424 Z-3.1667 I0.0063 J0.0108
G2 X24.9474 Y55.4316 Z-3.2 I0.0062 J-0.0108
G2 X24.9287 Y55.4208 I-0.0125 J0.0
G2 Y55.4424 I0.0063 J0.0108
G2 X24.9474 Y55.4316 I0.0062 J-0.0108
G0 Z3.0
G0 X17.9296 Y71.326
G1 F1000.0 Z0.0
G2 F2000.0 X17.9108 Y71.3151 Z-0.0333 I-0.0125 J0.0
G2 Y71.3368 Z-0.0667 I0.0062 J0.0108
G2 X17.9296 Y71.326 Z-0.1 I0.0063 J-0.0108
G2 X17.9108 Y71.3151 Z-0.1333 I-0.0125 J0.0
G2 Y71.3368 Z-0.1667 I0.0062 J0.0108
G2 X17.9296 Y71.326 Z-0.2 I0.0063 J-0.0108
G2 X17.9108 Y71.3151 Z-0.2333 I-0.0125 J0.0
G2 Y71.3368 Z-0.2667 I0.0062 J0.0108
G2 X17.9296 Y71.326 Z-0.3 I0.0063 J-0.0108
G2 X17.9108 Y71.3151 Z-0.3333 I-0.0125 J0.0
G2 Y71.3368 Z-0.3667 I0.0062 J0.0108
G2 X17.9296 Y71.326 Z-0.4 I0.0063 J-0.0108
G2 X17.9108 Y71.3151 Z-0.4333 I-0.0125 J0.0
G2 Y71.3368 Z-0.4667 I0.0062 J0.0108
G2 X17.9296 Y71.326 Z-0.5 I0.0063 J-0.0108
G2 X17.9108 Y71.3151 Z-0.5333 I-0.0125 J0.0
G2 Y71.3368 Z-0.5667 I0.0062 J0.0108
G2 X17.9296 Y71.326 Z-0.6 I0.0063 J-0.0108
G2 X17.9108 Y71.3151 Z-0.6333 I-0.0125 J0.0
G2 Y71.3368 Z-0.6667 I0.0062 J0.0108
G2 X17.9296 Y71.326 Z-0.7 I0.0063 J-0.0108
G2 X17.9108 Y71.3151 Z-0.7333 I-0.0125 J0.0
G2 Y71.3368 Z-0.7667 I0.0062 J0.0108
G2 X17.9296 Y71.326 Z-0.8 I0.0063 J-0.0108
G2 X17.9108 Y71.3151 Z-0.8333 I-0.0125 J0.0
G2 Y71.3368 Z-0.8667 I0.0062 J0.0108
G2 X17.9296 Y71.326 Z-0.9 I0.0063 J-0.0108
G2 X17.9108 Y71.3151 Z-0.9333 I-0.0125 J0.0
G2 Y71.3368 Z-0.9667 I0.0062 J0.0108
G2 X17.9296 Y71.326 Z-1.0 I0.0063 J-0.0108
G2 X17.9108 Y71.3151 Z-1.0333 I-0.0125 J0.0
G2 Y71.3368 Z-1.0667 I0.0062 J0.0108
G2 X17.9296 Y71.326 Z-1.1 I0.0063 J-0.0108
G2 X17.9108 Y71.3151 Z-1.1333 I-0.0125 J0.0
G2 Y71.3368 Z-1.1667 I0.0062 J0.0108
G2 X17.9296 Y71.326 Z-1.2 I0.0063 J-0.0108
G2 X17.9108 Y71.3151 Z-1.2333 I-0.0125 J0.0
G2 Y71.3368 Z-1.2667 I0.0062 J0.0108
G2 X17.9296 Y71.326 Z-1.3 I0.0063 J-0.0108
G2 X17.9108 Y71.3151 Z-1.3333 I-0.0125 J0.0
G2 Y71.3368 Z-1.3667 I0.0062 J0.0108
G2 X17.9296 Y71.326 Z-1.4 I0.0063 J-0.0108
G2 X17.9108 Y71.3151 Z-1.4333 I-0.0125 J0.0
G2 Y71.3368 Z-1.4667 I0.0062 J0.0108
G2 X17.9296 Y71.326 Z-1.5 I0.0063 J-0.0108
G2 X17.9108 Y71.3151 Z-1.5333 I-0.0125 J0.0
G2 Y71.3368 Z-1.5667 I0.0062 J0.0108
G2 X17.9296 Y71.326 Z-1.6 I0.0063 J-0.0108
G2 X17.9108 Y71.3151 Z-1.6333 I-0.0125 J0.0
G2 Y71.3368 Z-1.6667 I0.0062 J0.0108
G2 X17.9296 Y71.326 Z-1.7 I0.0063 J-0.0108
G2 X17.9108 Y71.3151 Z-1.7333 I-0.0125 J0.0
G2 Y71.3368 Z-1.7667 I0.0062 J0.0108
G2 X17.9296 Y71.326 Z-1.8 I0.0063 J-0.0108
G2 X17.9108 Y71.3151 Z-1.8333 I-0.0125 J0.0
G2 Y71.3368 Z-1.8667 I0.0062 J0.0108
G2 X17.9296 Y71.326 Z-1.9 I0.0063 J-0.0108
G2 X17.9108 Y71.3151 Z-1.9333 I-0.0125 J0.0
G2 Y71.3368 Z-1.9667 I0.0062 J0.0108
G2 X17.9296 Y71.326 Z-2.0 I0.0063 J-0.0108
G2 X17.9108 Y71.3151 Z-2.0333 I-0.0125 J0.0
G2 Y71.3368 Z-2.0667 I0.0062 J0.0108
G2 X17.9296 Y71.326 Z-2.1 I0.0063 J-0.0108
G2 X17.9108 Y71.3151 Z-2.1333 I-0.0125 J0.0
G2 Y71.3368 Z-2.1667 I0.0062 J0.0108
G2 X17.9296 Y71.326 Z-2.2 I0.0063 J-0.0108
G2 X17.9108 Y71.3151 Z-2.2333 I-0.0125 J0.0
G2 Y71.3368 Z-2.2667 I0.0062 J0.0108
G2 X17.9296 Y71.326 Z-2.3 I0.0063 J-0.0108
G2 X17.9108 Y71.3151 Z-2.3333 I-0.0125 J0.0
G2 Y71.3368 Z-2.3667 I0.0062 J0.0108
G2 X17.9296 Y71.326 Z-2.4 I0.0063 J-0.0108
G2 X17.9108 Y71.3151 Z-2.4333 I-0.0125 J0.0
G2 Y71.3368 Z-2.4667 I0.0062 J0.0108
G2 X17.9296 Y71.326 Z-2.5 I0.0063 J-0.0108
G2 X17.9108 Y71.3151 Z-2.5333 I-0.0125 J0.0
G2 Y71.3368 Z-2.5667 I0.0062 J0.0108
G2 X17.9296 Y71.326 Z-2.6 I0.0063 J-0.0108
G2 X17.9108 Y71.3151 Z-2.6333 I-0.0125 J0.0
G2 Y71.3368 Z-2.6667 I0.0062 J0.0108
G2 X17.9296 Y71.326 Z-2.7 I0.0063 J-0.0108
G2 X17.9108 Y71.3151 Z-2.7333 I-0.0125 J0.0
G2 Y71.3368 Z-2.7667 I0.0062 J0.0108
G2 X17.9296 Y71.326 Z-2.8 I0.0063 J-0.0108
G2 X17.9108 Y71.3151 Z-2.8333 I-0.0125 J0.0
G2 Y71.3368 Z-2.8667 I0.0062 J0.0108
G2 X17.9296 Y71.326 Z-2.9 I0.0063 J-0.0108
G2 X17.9108 Y71.3151 Z-2.9333 I-0.0125 J0.0
G2 Y71.3368 Z-2.9667 I0.0062 J0.0108
G2 X17.9296 Y71.326 Z-3.0 I0.0063 J-0.0108
G2 X17.9108 Y71.3151 Z-3.0333 I-0.0125 J0.0
G2 Y71.3368 Z-3.0667 I0.0062 J0.0108
G2 X17.9296 Y71.326 Z-3.1 I0.0063 J-0.0108
G2 X17.9108 Y71.3151 Z-3.1333 I-0.0125 J0.0
G2 Y71.3368 Z-3.1667 I0.0062 J0.0108
G2 X17.9296 Y71.326 Z-3.2 I0.0063 J-0.0108
G2 X17.9108 Y71.3151 I-0.0125 J0.0
G2 Y71.3368 I0.0063 J0.0108
G2 X17.9296 Y71.326 I0.0062 J-0.0108
G0 Z3.0
G0 Y90.3179
G1 F1000.0 Z0.0
G2 F2000.0 X17.9108 Y90.3071 Z-0.0333 I-0.0125 J0.0
G2 Y90.3288 Z-0.0667 I0.0062 J0.0108
G2 X17.9296 Y90.3179 Z-0.1 I0.0063 J-0.0108
G2 X17.9108 Y90.3071 Z-0.1333 I-0.0125 J0.0
G2 Y90.3288 Z-0.1667 I0.0062 J0.0108
G2 X17.9296 Y90.3179 Z-0.2 I0.0063 J-0.0108
G2 X17.9108 Y90.3071 Z-0.2333 I-0.0125 J0.0
G2 Y90.3288 Z-0.2667 I0.0062 J0.0108
G2 X17.9296 Y90.3179 Z-0.3 I0.0063 J-0.0108
G2 X17.9108 Y90.3071 Z-0.3333 I-0.0125 J0.0
G2 Y90.3288 Z-0.3667 I0.0062 J0.0108
G2 X17.9296 Y90.3179 Z-0.4 I0.0063 J-0.0108
G2 X17.9108 Y90.3071 Z-0.4333 I-0.0125 J0.0
G2 Y90.3288 Z-0.4667 I0.0062 J0.0108
G2 X17.9296 Y90.3179 Z-0.5 I0.0063 J-0.0108
G2 X17.9108 Y90.3071 Z-0.5333 I-0.0125 J0.0
G2 Y90.3288 Z-0.5667 I0.0062 J0.0108
G2 X17.9296 Y90.3179 Z-0.6 I0.0063 J-0.0108
G2 X17.9108 Y90.3071 Z-0.6333 I-0.0125 J0.0
G2 Y90.3288 Z-0.6667 I0.0062 J0.0108
G2 X17.9296 Y90.3179 Z-0.7 I0.0063 J-0.0108
G2 X17.9108 Y90.3071 Z-0.7333 I-0.0125 J0.0
G2 Y90.3288 Z-0.7667 I0.0062 J0.0108
G2 X17.9296 Y90.3179 Z-0.8 I0.0063 J-0.0108
G2 X17.9108 Y90.3071 Z-0.8333 I-0.0125 J0.0
G2 Y90.3288 Z-0.8667 I0.0062 J0.0108
G2 X17.9296 Y90.3179 Z-0.9 I0.0063 J-0.0108
G2 X17.9108 Y90.3071 Z-0.9333 I-0.0125 J0.0
G2 Y90.3288 Z-0.9667 I0.0062 J0.0108
G2 X17.9296 Y90.3179 Z-1.0 I0.0063 J-0.0108
G2 X17.9108 Y90.3071 Z-1.0333 I-0.0125 J0.0
G2 Y90.3288 Z-1.0667 I0.0062 J0.0108
G2 X17.9296 Y90.3179 Z-1.1 I0.0063 J-0.0108
G2 X17.9108 Y90.3071 Z-1.1333 I-0.0125 J0.0
G2 Y90.3288 Z-1.1667 I0.0062 J0.0108
G2 X17.9296 Y90.3179 Z-1.2 I0.0063 J-0.0108
G2 X17.9108 Y90.3071 Z-1.2333 I-0.0125 J0.0
G2 Y90.3288 Z-1.2667 I0.0062 J0.0108
G2 X17.9296 Y90.3179 Z-1.3 I0.0063 J-0.0108
G2 X17.9108 Y90.3071 Z-1.3333 I-0.0125 J0.0
G2 Y90.3288 Z-1.3667 I0.0062 J0.0108
G2 X17.9296 Y90.3179 Z-1.4 I0.0063 J-0.0108
G2 X17.9108 Y90.3071 Z-1.4333 I-0.0125 J0.0
G2 Y90.3288 Z-1.4667 I0.0062 J0.0108
G2 X17.9296 Y90.3179 Z-1.5 I0.0063 J-0.0108
G2 X17.9108 Y90.3071 Z-1.5333 I-0.0125 J0.0
G2 Y90.3288 Z-1.5667 I0.0062 J0.0108
G2 X17.9296 Y90.3179 Z-1.6 I0.0063 J-0.0108
G2 X17.9108 Y90.3071 Z-1.6333 I-0.0125 J0.0
G2 Y90.3288 Z-1.6667 I0.0062 J0.0108
G2 X17.9296 Y90.3179 Z-1.7 I0.0063 J-0.0108
G2 X17.9108 Y90.3071 Z-1.7333 I-0.0125 J0.0
G2 Y90.3288 Z-1.7667 I0.0062 J0.0108
G2 X17.9296 Y90.3179 Z-1.8 I0.0063 J-0.0108
G2 X17.9108 Y90.3071 Z-1.8333 I-0.0125 J0.0
G2 Y90.3288 Z-1.8667 I0.0062 J0.0108
G2 X17.9296 Y90.3179 Z-1.9 I0.0063 J-0.0108
G2 X17.9108 Y90.3071 Z-1.9333 I-0.0125 J0.0
G2 Y90.3288 Z-1.9667 I0.0062 J0.0108
G2 X17.9296 Y90.3179 Z-2.0 I0.0063 J-0.0108
G2 X17.9108 Y90.3071 Z-2.0333 I-0.0125 J0.0
G2 Y90.3288 Z-2.0667 I0.0062 J0.0108
G2 X17.9296 Y90.3179 Z-2.1 I0.0063 J-0.0108
G2 X17.9108 Y90.3071 Z-2.1333 I-0.0125 J0.0
G2 Y90.3288 Z-2.1667 I0.0062 J0.0108
G2 X17.9296 Y90.3179 Z-2.2 I0.0063 J-0.0108
G2 X17.9108 Y90.3071 Z-2.2333 I-0.0125 J0.0
G2 Y90.3288 Z-2.2667 I0.0062 J0.0108
G2 X17.9296 Y90.3179 Z-2.3 I0.0063 J-0.0108
G2 X17.9108 Y90.3071 Z-2.3333 I-0.0125 J0.0
G2 Y90.3288 Z-2.3667 I0.0062 J0.0108
G2 X17.9296 Y90.3179 Z-2.4 I0.0063 J-0.0108
G2 X17.9108 Y90.3071 Z-2.4333 I-0.0125 J0.0
G2 Y90.3288 Z-2.4667 I0.0062 J0.0108
G2 X17.9296 Y90.3179 Z-2.5 I0.0063 J-0.0108
G2 X17.9108 Y90.3071 Z-2.5333 I-0.0125 J0.0
G2 Y90.3288 Z-2.5667 I0.0062 J0.0108
G2 X17.9296 Y90.3179 Z-2.6 I0.0063 J-0.0108
G2 X17.9108 Y90.3071 Z-2.6333 I-0.0125 J0.0
G2 Y90.3288 Z-2.6667 I0.0062 J0.0108
G2 X17.9296 Y90.3179 Z-2.7 I0.0063 J-0.0108
G2 X17.9108 Y90.3071 Z-2.7333 I-0.0125 J0.0
G2 Y90.3288 Z-2.7667 I0.0062 J0.0108
G2 X17.9296 Y90.3179 Z-2.8 I0.0063 J-0.0108
G2 X17.9108 Y90.3071 Z-2.8333 I-0.0125 J0.0
G2 Y90.3288 Z-2.8667 I0.0062 J0.0108
G2 X17.9296 Y90.3179 Z-2.9 I0.0063 J-0.0108
G2 X17.9108 Y90.3071 Z-2.9333 I-0.0125 J0.0
G2 Y90.3288 Z-2.9667 I0.0062 J0.0108
G2 X17.9296 Y90.3179 Z-3.0 I0.0063 J-0.0108
G2 X17.9108 Y90.3071 Z-3.0333 I-0.0125 J0.0
G2 Y90.3288 Z-3.0667 I0.0062 J0.0108
G2 X17.9296 Y90.3179 Z-3.1 I0.0063 J-0.0108
G2 X17.9108 Y90.3071 Z-3.1333 I-0.0125 J0.0
G2 Y90.3288 Z-3.1667 I0.0062 J0.0108
G2 X17.9296 Y90.3179 Z-3.2 I0.0063 J-0.0108
G2 X17.9108 Y90.3071 I-0.0125 J0.0
G2 Y90.3288 I0.0063 J0.0108
G2 X17.9296 Y90.3179 I0.0062 J-0.0108
G0 Z3.0
G0 X24.936 Y105.7735
G1 F1000.0 Z0.0
G2 F2000.0 X24.9172 Y105.7627 Z-0.0333 I-0.0125 J0.0
G2 Y105.7844 Z-0.0667 I0.0062 J0.0108
G2 X24.936 Y105.7735 Z-0.1 I0.0063 J-0.0108
G2 X24.9172 Y105.7627 Z-0.1333 I-0.0125 J0.0
G2 Y105.7844 Z-0.1667 I0.0062 J0.0108
G2 X24.936 Y105.7735 Z-0.2 I0.0063 J-0.0108
G2 X24.9172 Y105.7627 Z-0.2333 I-0.0125 J0.0
G2 Y105.7844 Z-0.2667 I0.0062 J0.0108
G2 X24.936 Y105.7735 Z-0.3 I0.0063 J-0.0108
G2 X24.9172 Y105.7627 Z-0.3333 I-0.0125 J0.0
G2 Y105.7844 Z-0.3667 I0.0062 J0.0108
G2 X24.936 Y105.7735 Z-0.4 I0.0063 J-0.0108
G2 X24.9172 Y105.7627 Z-0.4333 I-0.0125 J0.0
G2 Y105.7844 Z-0.4667 I0.0062 J0.0108
G2 X24.936 Y105.7735 Z-0.5 I0.0063 J-0.0108
G2 X24.9172 Y105.7627 Z-0.5333 I-0.0125 J0.0
G2 Y105.7844 Z-0.5667 I0.0062 J0.0108
G2 X24.936 Y105.7735 Z-0.6 I0.0063 J-0.0108
G2 X24.9172 Y105.7627 Z-0.6333 I-0.0125 J0.0
G2 Y105.7844 Z-0.6667 I0.0062 J0.0108
G2 X24.936 Y105.7735 Z-0.7 I0.0063 J-0.0108
G2 X24.9172 Y105.7627 Z-0.7333 I-0.0125 J0.0
G2 Y105.7844 Z-0.7667 I0.0062 J0.0108
G2 X24.936 Y105.7735 Z-0.8 I0.0063 J-0.0108
G2 X24.9172 Y105.7627 Z-0.8333 I-0.0125 J0.0
G2 Y105.7844 Z-0.8667 I0.0062 J0.0108
G2 X24.936 Y105.7735 Z-0.9 I0.0063 J-0.0108
G2 X24.9172 Y105.7627 Z-0.9333 I-0.0125 J0.0
G2 Y105.7844 Z-0.9667 I0.0062 J0.0108
G2 X24.936 Y105.7735 Z-1.0 I0.0063 J-0.0108
G2 X24.9172 Y105.7627 Z-1.0333 I-0.0125 J0.0
G2 Y105.7844 Z-1.0667 I0.0062 J0.0108
G2 X24.936 Y105.7735 Z-1.1 I0.0063 J-0.0108
G2 X24.9172 Y105.7627 Z-1.1333 I-0.0125 J0.0
G2 Y105.7844 Z-1.1667 I0.0062 J0.0108
G2 X24.936 Y105.7735 Z-1.2 I0.0063 J-0.0108
G2 X24.9172 Y105.7627 Z-1.2333 I-0.0125 J0.0
G2 Y105.7844 Z-1.2667 I0.0062 J0.0108
G2 X24.936 Y105.7735 Z-1.3 I0.0063 J-0.0108
G2 X24.9172 Y105.7627 Z-1.3333 I-0.0125 J0.0
G2 Y105.7844 Z-1.3667 I0.0062 J0.0108
G2 X24.936 Y105.7735 Z-1.4 I0.0063 J-0.0108
G2 X24.9172 Y105.7627 Z-1.4333 I-0.0125 J0.0
G2 Y105.7844 Z-1.4667 I0.0062 J0.0108
G2 X24.936 Y105.7735 Z-1.5 I0.0063 J-0.0108
G2 X24.9172 Y105.7627 Z-1.5333 I-0.0125 J0.0
G2 Y105.7844 Z-1.5667 I0.0062 J0.0108
G2 X24.936 Y105.7735 Z-1.6 I0.0063 J-0.0108
G2 X24.9172 Y105.7627 Z-1.6333 I-0.0125 J0.0
G2 Y105.7844 Z-1.6667 I0.0062 J0.0108
G2 X24.936 Y105.7735 Z-1.7 I0.0063 J-0.0108
G2 X24.9172 Y105.7627 Z-1.7333 I-0.0125 J0.0
G2 Y105.7844 Z-1.7667 I0.0062 J0.0108
G2 X24.936 Y105.7735 Z-1.8 I0.0063 J-0.0108
G2 X24.9172 Y105.7627 Z-1.8333 I-0.0125 J0.0
G2 Y105.7844 Z-1.8667 I0.0062 J0.0108
G2 X24.936 Y105.7735 Z-1.9 I0.0063 J-0.0108
G2 X24.9172 Y105.7627 Z-1.9333 I-0.0125 J0.0
G2 Y105.7844 Z-1.9667 I0.0062 J0.0108
G2 X24.936 Y105.7735 Z-2.0 I0.0063 J-0.0108
G2 X24.9172 Y105.7627 Z-2.0333 I-0.0125 J0.0
G2 Y105.7844 Z-2.0667 I0.0062 J0.0108
G2 X24.936 Y105.7735 Z-2.1 I0.0063 J-0.0108
G2 X24.9172 Y105.7627 Z-2.1333 I-0.0125 J0.0
G2 Y105.7844 Z-2.1667 I0.0062 J0.0108
G2 X24.936 Y105.7735 Z-2.2 I0.0063 J-0.0108
G2 X24.9172 Y105.7627 Z-2.2333 I-0.0125 J0.0
G2 Y105.7844 Z-2.2667 I0.0062 J0.0108
G2 X24.936 Y105.7735 Z-2.3 I0.0063 J-0.0108
G2 X24.9172 Y105.7627 Z-2.3333 I-0.0125 J0.0
G2 Y105.7844 Z-2.3667 I0.0062 J0.0108
G2 X24.936 Y105.7735 Z-2.4 I0.0063 J-0.0108
G2 X24.9172 Y105.7627 Z-2.4333 I-0.0125 J0.0
G2 Y105.7844 Z-2.4667 I0.0062 J0.0108
G2 X24.936 Y105.7735 Z-2.5 I0.0063 J-0.0108
G2 X24.9172 Y105.7627 Z-2.5333 I-0.0125 J0.0
G2 Y105.7844 Z-2.5667 I0.0062 J0.0108
G2 X24.936 Y105.7735 Z-2.6 I0.0063 J-0.0108
G2 X24.9172 Y105.7627 Z-2.6333 I-0.0125 J0.0
G2 Y105.7844 Z-2.6667 I0.0062 J0.0108
G2 X24.936 Y105.7735 Z-2.7 I0.0063 J-0.0108
G2 X24.9172 Y105.7627 Z-2.7333 I-0.0125 J0.0
G2 Y105.7844 Z-2.7667 I0.0062 J0.0108
G2 X24.936 Y105.7735 Z-2.8 I0.0063 J-0.0108
G2 X24.9172 Y105.7627 Z-2.8333 I-0.0125 J0.0
G2 Y105.7844 Z-2.8667 I0.0062 J0.0108
G2 X24.936 Y105.7735 Z-2.9 I0.0063 J-0.0108
G2 X24.9172 Y105.7627 Z-2.9333 I-0.0125 J0.0
G2 Y105.7844 Z-2.9667 I0.0062 J0.0108
G2 X24.936 Y105.7735 Z-3.0 I0.0063 J-0.0108
G2 X24.9172 Y105.7627 Z-3.0333 I-0.0125 J0.0
G2 Y105.7844 Z-3.0667 I0.0062 J0.0108
G2 X24.936 Y105.7735 Z-3.1 I0.0063 J-0.0108
G2 X24.9172 Y105.7627 Z-3.1333 I-0.0125 J0.0
G2 Y105.7844 Z-3.1667 I0.0062 J0.0108
G2 X24.936 Y105.7735 Z-3.2 I0.0063 J-0.0108
G2 X24.9172 Y105.7627 I-0.0125 J0.0
G2 Y105.7844 I0.0063 J0.0108
G2 X24.936 Y105.7735 I0.0062 J-0.0108
G0 Z3.0
G0 X51.9565 Y100.6382
G1 F1000.0 Z0.0
G2 F2000.0 X51.9377 Y100.6274 Z-0.0333 I-0.0125 J0.0
G2 Y100.649 Z-0.0667 I0.0062 J0.0108
G2 X51.9565 Y100.6382 Z-0.1 I0.0063 J-0.0108
G2 X51.9377 Y100.6274 Z-0.1333 I-0.0125 J0.0
G2 Y100.649 Z-0.1667 I0.0062 J0.0108
G2 X51.9565 Y100.6382 Z-0.2 I0.0063 J-0.0108
G2 X51.9377 Y100.6274 Z-0.2333 I-0.0125 J0.0
G2 Y100.649 Z-0.2667 I0.0062 J0.0108
G2 X51.9565 Y100.6382 Z-0.3 I0.0063 J-0.0108
G2 X51.9377 Y100.6274 Z-0.3333 I-0.0125 J0.0
G2 Y100.649 Z-0.3667 I0.0062 J0.0108
G2 X51.9565 Y100.6382 Z-0.4 I0.0063 J-0.0108
G2 X51.9377 Y100.6274 Z-0.4333 I-0.0125 J0.0
G2 Y100.649 Z-0.4667 I0.0062 J0.0108
G2 X51.9565 Y100.6382 Z-0.5 I0.0063 J-0.0108
G2 X51.9377 Y100.6274 Z-0.5333 I-0.0125 J0.0
G2 Y100.649 Z-0.5667 I0.0062 J0.0108
G2 X51.9565 Y100.6382 Z-0.6 I0.0063 J-0.0108
G2 X51.9377 Y100.6274 Z-0.6333 I-0.0125 J0.0
G2 Y100.649 Z-0.6667 I0.0062 J0.0108
G2 X51.9565 Y100.6382 Z-0.7 I0.0063 J-0.0108
G2 X51.9377 Y100.6274 Z-0.7333 I-0.0125 J0.0
G2 Y100.649 Z-0.7667 I0.0062 J0.0108
G2 X51.9565 Y100.6382 Z-0.8 I0.0063 J-0.0108
G2 X51.9377 Y100.6274 Z-0.8333 I-0.0125 J0.0
G2 Y100.649 Z-0.8667 I0.0062 J0.0108
G2 X51.9565 Y100.6382 Z-0.9 I0.0063 J-0.0108
G2 X51.9377 Y100.6274 Z-0.9333 I-0.0125 J0.0
G2 Y100.649 Z-0.9667 I0.0062 J0.0108
G2 X51.9565 Y100.6382 Z-1.0 I0.0063 J-0.0108
G2 X51.9377 Y100.6274 Z-1.0333 I-0.0125 J0.0
G2 Y100.649 Z-1.0667 I0.0062 J0.0108
G2 X51.9565 Y100.6382 Z-1.1 I0.0063 J-0.0108
G2 X51.9377 Y100.6274 Z-1.1333 I-0.0125 J0.0
G2 Y100.649 Z-1.1667 I0.0062 J0.0108
G2 X51.9565 Y100.6382 Z-1.2 I0.0063 J-0.0108
G2 X51.9377 Y100.6274 Z-1.2333 I-0.0125 J0.0
G2 Y100.649 Z-1.2667 I0.0062 J0.0108
G2 X51.9565 Y100.6382 Z-1.3 I0.0063 J-0.0108
G2 X51.9377 Y100.6274 Z-1.3333 I-0.0125 J0.0
G2 Y100.649 Z-1.3667 I0.0062 J0.0108
G2 X51.9565 Y100.6382 Z-1.4 I0.0063 J-0.0108
G2 X51.9377 Y100.6274 Z-1.4333 I-0.0125 J0.0
G2 Y100.649 Z-1.4667 I0.0062 J0.0108
G2 X51.9565 Y100.6382 Z-1.5 I0.0063 J-0.0108
G2 X51.9377 Y100.6274 Z-1.5333 I-0.0125 J0.0
G2 Y100.649 Z-1.5667 I0.0062 J0.0108
G2 X51.9565 Y100.6382 Z-1.6 I0.0063 J-0.0108
G2 X51.9377 Y100.6274 Z-1.6333 I-0.0125 J0.0
G2 Y100.649 Z-1.6667 I0.0062 J0.0108
G2 X51.9565 Y100.6382 Z-1.7 I0.0063 J-0.0108
G2 X51.9377 Y100.6274 Z-1.7333 I-0.0125 J0.0
G2 Y100.649 Z-1.7667 I0.0062 J0.0108
G2 X51.9565 Y100.6382 Z-1.8 I0.0063 J-0.0108
G2 X51.9377 Y100.6274 Z-1.8333 I-0.0125 J0.0
G2 Y100.649 Z-1.8667 I0.0062 J0.0108
G2 X51.9565 Y100.6382 Z-1.9 I0.0063 J-0.0108
G2 X51.9377 Y100.6274 Z-1.9333 I-0.0125 J0.0
G2 Y100.649 Z-1.9667 I0.0062 J0.0108
G2 X51.9565 Y100.6382 Z-2.0 I0.0063 J-0.0108
G2 X51.9377 Y100.6274 Z-2.0333 I-0.0125 J0.0
G2 Y100.649 Z-2.0667 I0.0062 J0.0108
G2 X51.9565 Y100.6382 Z-2.1 I0.0063 J-0.0108
G2 X51.9377 Y100.6274 Z-2.1333 I-0.0125 J0.0
G2 Y100.649 Z-2.1667 I0.0062 J0.0108
G2 X51.9565 Y100.6382 Z-2.2 I0.0063 J-0.0108
G2 X51.9377 Y100.6274 Z-2.2333 I-0.0125 J0.0
G2 Y100.649 Z-2.2667 I0.0062 J0.0108
G2 X51.9565 Y100.6382 Z-2.3 I0.0063 J-0.0108
G2 X51.9377 Y100.6274 Z-2.3333 I-0.0125 J0.0
G2 Y100.649 Z-2.3667 I0.0062 J0.0108
G2 X51.9565 Y100.6382 Z-2.4 I0.0063 J-0.0108
G2 X51.9377 Y100.6274 Z-2.4333 I-0.0125 J0.0
G2 Y100.649 Z-2.4667 I0.0062 J0.0108
G2 X51.9565 Y100.6382 Z-2.5 I0.0063 J-0.0108
G2 X51.9377 Y100.6274 Z-2.5333 I-0.0125 J0.0
G2 Y100.649 Z-2.5667 I0.0062 J0.0108
G2 X51.9565 Y100.6382 Z-2.6 I0.0063 J-0.0108
G2 X51.9377 Y100.6274 Z-2.6333 I-0.0125 J0.0
G2 Y100.649 Z-2.6667 I0.0062 J0.0108
G2 X51.9565 Y100.6382 Z-2.7 I0.0063 J-0.0108
G2 X51.9377 Y100.6274 Z-2.7333 I-0.0125 J0.0
G2 Y100.649 Z-2.7667 I0.0062 J0.0108
G2 X51.9565 Y100.6382 Z-2.8 I0.0063 J-0.0108
G2 X51.9377 Y100.6274 Z-2.8333 I-0.0125 J0.0
G2 Y100.649 Z-2.8667 I0.0062 J0.0108
G2 X51.9565 Y100.6382 Z-2.9 I0.0063 J-0.0108
G2 X51.9377 Y100.6274 Z-2.9333 I-0.0125 J0.0
G2 Y100.649 Z-2.9667 I0.0063 J0.0108
G2 X51.9565 Y100.6382 Z-3.0 I0.0063 J-0.0108
G2 X51.9377 Y100.6274 Z-3.0333 I-0.0125 J0.0
G2 Y100.649 Z-3.0667 I0.0063 J0.0108
G2 X51.9565 Y100.6382 Z-3.1 I0.0063 J-0.0108
G2 X51.9377 Y100.6274 Z-3.1333 I-0.0125 J0.0
G2 Y100.649 Z-3.1667 I0.0063 J0.0108
G2 X51.9565 Y100.6382 Z-3.2 I0.0063 J-0.0108
G2 X51.9377 Y100.6274 I-0.0125 J0.0
G2 Y100.649 I0.0063 J0.0108
G2 X51.9565 Y100.6382 I0.0062 J-0.0108
G0 Z3.0
G0 X44.9902 Y84.161
G1 F1000.0 Z0.0
G2 F2000.0 X44.9715 Y84.1501 Z-0.0333 I-0.0125 J0.0
G2 Y84.1718 Z-0.0667 I0.0062 J0.0108
G2 X44.9902 Y84.161 Z-0.1 I0.0063 J-0.0108
G2 X44.9715 Y84.1501 Z-0.1333 I-0.0125 J0.0
G2 Y84.1718 Z-0.1667 I0.0062 J0.0108
G2 X44.9902 Y84.161 Z-0.2 I0.0063 J-0.0108
G2 X44.9715 Y84.1501 Z-0.2333 I-0.0125 J0.0
G2 Y84.1718 Z-0.2667 I0.0062 J0.0108
G2 X44.9902 Y84.161 Z-0.3 I0.0063 J-0.0108
G2 X44.9715 Y84.1501 Z-0.3333 I-0.0125 J0.0
G2 Y84.1718 Z-0.3667 I0.0062 J0.0108
G2 X44.9902 Y84.161 Z-0.4 I0.0063 J-0.0108
G2 X44.9715 Y84.1501 Z-0.4333 I-0.0125 J0.0
G2 Y84.1718 Z-0.4667 I0.0062 J0.0108
G2 X44.9902 Y84.161 Z-0.5 I0.0063 J-0.0108
G2 X44.9715 Y84.1501 Z-0.5333 I-0.0125 J0.0
G2 Y84.1718 Z-0.5667 I0.0062 J0.0108
G2 X44.9902 Y84.161 Z-0.6 I0.0063 J-0.0108
G2 X44.9715 Y84.1501 Z-0.6333 I-0.0125 J0.0
G2 Y84.1718 Z-0.6667 I0.0062 J0.0108
G2 X44.9902 Y84.161 Z-0.7 I0.0063 J-0.0108
G2 X44.9715 Y84.1501 Z-0.7333 I-0.0125 J0.0
G2 Y84.1718 Z-0.7667 I0.0062 J0.0108
G2 X44.9902 Y84.161 Z-0.8 I0.0063 J-0.0108
G2 X44.9715 Y84.1501 Z-0.8333 I-0.0125 J0.0
G2 Y84.1718 Z-0.8667 I0.0062 J0.0108
G2 X44.9902 Y84.161 Z-0.9 I0.0063 J-0.0108
G2 X44.9715 Y84.1501 Z-0.9333 I-0.0125 J0.0
G2 Y84.1718 Z-0.9667 I0.0062 J0.0108
G2 X44.9902 Y84.161 Z-1.0 I0.0063 J-0.0108
G2 X44.9715 Y84.1501 Z-1.0333 I-0.0125 J0.0
G2 Y84.1718 Z-1.0667 I0.0062 J0.0108
G2 X44.9902 Y84.161 Z-1.1 I0.0063 J-0.0108
G2 X44.9715 Y84.1501 Z-1.1333 I-0.0125 J0.0
G2 Y84.1718 Z-1.1667 I0.0062 J0.0108
G2 X44.9902 Y84.161 Z-1.2 I0.0063 J-0.0108
G2 X44.9715 Y84.1501 Z-1.2333 I-0.0125 J0.0
G2 Y84.1718 Z-1.2667 I0.0062 J0.0108
G2 X44.9902 Y84.161 Z-1.3 I0.0063 J-0.0108
G2 X44.9715 Y84.1501 Z-1.3333 I-0.0125 J0.0
G2 Y84.1718 Z-1.3667 I0.0062 J0.0108
G2 X44.9902 Y84.161 Z-1.4 I0.0063 J-0.0108
G2 X44.9715 Y84.1501 Z-1.4333 I-0.0125 J0.0
G2 Y84.1718 Z-1.4667 I0.0062 J0.0108
G2 X44.9902 Y84.161 Z-1.5 I0.0063 J-0.0108
G2 X44.9715 Y84.1501 Z-1.5333 I-0.0125 J0.0
G2 Y84.1718 Z-1.5667 I0.0062 J0.0108
G2 X44.9902 Y84.161 Z-1.6 I0.0063 J-0.0108
G2 X44.9715 Y84.1501 Z-1.6333 I-0.0125 J0.0
G2 Y84.1718 Z-1.6667 I0.0062 J0.0108
G2 X44.9902 Y84.161 Z-1.7 I0.0063 J-0.0108
G2 X44.9715 Y84.1501 Z-1.7333 I-0.0125 J0.0
G2 Y84.1718 Z-1.7667 I0.0062 J0.0108
G2 X44.9902 Y84.161 Z-1.8 I0.0063 J-0.0108
G2 X44.9715 Y84.1501 Z-1.8333 I-0.0125 J0.0
G2 Y84.1718 Z-1.8667 I0.0062 J0.0108
G2 X44.9902 Y84.161 Z-1.9 I0.0063 J-0.0108
G2 X44.9715 Y84.1501 Z-1.9333 I-0.0125 J0.0
G2 Y84.1718 Z-1.9667 I0.0062 J0.0108
G2 X44.9902 Y84.161 Z-2.0 I0.0063 J-0.0108
G2 X44.9715 Y84.1501 Z-2.0333 I-0.0125 J0.0
G2 Y84.1718 Z-2.0667 I0.0062 J0.0108
G2 X44.9902 Y84.161 Z-2.1 I0.0063 J-0.0108
G2 X44.9715 Y84.1501 Z-2.1333 I-0.0125 J0.0
G2 Y84.1718 Z-2.1667 I0.0062 J0.0108
G2 X44.9902 Y84.161 Z-2.2 I0.0063 J-0.0108
G2 X44.9715 Y84.1501 Z-2.2333 I-0.0125 J0.0
G2 Y84.1718 Z-2.2667 I0.0062 J0.0108
G2 X44.9902 Y84.161 Z-2.3 I0.0063 J-0.0108
G2 X44.9715 Y84.1501 Z-2.3333 I-0.0125 J0.0
G2 Y84.1718 Z-2.3667 I0.0062 J0.0108
G2 X44.9902 Y84.161 Z-2.4 I0.0063 J-0.0108
G2 X44.9715 Y84.1501 Z-2.4333 I-0.0125 J0.0
G2 Y84.1718 Z-2.4667 I0.0062 J0.0108
G2 X44.9902 Y84.161 Z-2.5 I0.0063 J-0.0108
G2 X44.9715 Y84.1501 Z-2.5333 I-0.0125 J0.0
G2 Y84.1718 Z-2.5667 I0.0062 J0.0108
G2 X44.9902 Y84.161 Z-2.6 I0.0063 J-0.0108
G2 X44.9715 Y84.1501 Z-2.6333 I-0.0125 J0.0
G2 Y84.1718 Z-2.6667 I0.0062 J0.0108
G2 X44.9902 Y84.161 Z-2.7 I0.0063 J-0.0108
G2 X44.9715 Y84.1501 Z-2.7333 I-0.0125 J0.0
G2 Y84.1718 Z-2.7667 I0.0062 J0.0108
G2 X44.9902 Y84.161 Z-2.8 I0.0063 J-0.0108
G2 X44.9715 Y84.1501 Z-2.8333 I-0.0125 J0.0
G2 Y84.1718 Z-2.8667 I0.0062 J0.0108
G2 X44.9902 Y84.161 Z-2.9 I0.0063 J-0.0108
G2 X44.9715 Y84.1501 Z-2.9333 I-0.0125 J0.0
G2 Y84.1718 Z-2.9667 I0.0063 J0.0108
G2 X44.9902 Y84.161 Z-3.0 I0.0063 J-0.0108
G2 X44.9715 Y84.1501 Z-3.0333 I-0.0125 J0.0
G2 Y84.1718 Z-3.0667 I0.0063 J0.0108
G2 X44.9902 Y84.161 Z-3.1 I0.0063 J-0.0108
G2 X44.9715 Y84.1501 Z-3.1333 I-0.0125 J0.0
G2 Y84.1718 Z-3.1667 I0.0063 J0.0108
G2 X44.9902 Y84.161 Z-3.2 I0.0063 J-0.0108
G2 X44.9715 Y84.1501 I-0.0125 J0.0
G2 Y84.1718 I0.0063 J0.0108
G2 X44.9902 Y84.161 I0.0062 J-0.0108
G0 Z3.0
G0 X44.9484 Y71.2959
G1 F1000.0 Z0.0
G2 F2000.0 X44.9297 Y71.2851 Z-0.0333 I-0.0125 J0.0
G2 Y71.3067 Z-0.0667 I0.0062 J0.0108
G2 X44.9484 Y71.2959 Z-0.1 I0.0063 J-0.0108
G2 X44.9297 Y71.2851 Z-0.1333 I-0.0125 J0.0
G2 Y71.3067 Z-0.1667 I0.0062 J0.0108
G2 X44.9484 Y71.2959 Z-0.2 I0.0063 J-0.0108
G2 X44.9297 Y71.2851 Z-0.2333 I-0.0125 J0.0
G2 Y71.3067 Z-0.2667 I0.0062 J0.0108
G2 X44.9484 Y71.2959 Z-0.3 I0.0063 J-0.0108
G2 X44.9297 Y71.2851 Z-0.3333 I-0.0125 J0.0
G2 Y71.3067 Z-0.3667 I0.0062 J0.0108
G2 X44.9484 Y71.2959 Z-0.4 I0.0063 J-0.0108
G2 X44.9297 Y71.2851 Z-0.4333 I-0.0125 J0.0
G2 Y71.3067 Z-0.4667 I0.0062 J0.0108
G2 X44.9484 Y71.2959 Z-0.5 I0.0063 J-0.0108
G2 X44.9297 Y71.2851 Z-0.5333 I-0.0125 J0.0
G2 Y71.3067 Z-0.5667 I0.0062 J0.0108
G2 X44.9484 Y71.2959 Z-0.6 I0.0063 J-0.0108
G2 X44.9297 Y71.2851 Z-0.6333 I-0.0125 J0.0
G2 Y71.3067 Z-0.6667 I0.0062 J0.0108
G2 X44.9484 Y71.2959 Z-0.7 I0.0063 J-0.0108
G2 X44.9297 Y71.2851 Z-0.7333 I-0.0125 J0.0
G2 Y71.3067 Z-0.7667 I0.0062 J0.0108
G2 X44.9484 Y71.2959 Z-0.8 I0.0063 J-0.0108
G2 X44.9297 Y71.2851 Z-0.8333 I-0.0125 J0.0
G2 Y71.3067 Z-0.8667 I0.0062 J0.0108
G2 X44.9484 Y71.2959 Z-0.9 I0.0063 J-0.0108
G2 X44.9297 Y71.2851 Z-0.9333 I-0.0125 J0.0
G2 Y71.3067 Z-0.9667 I0.0062 J0.0108
G2 X44.9484 Y71.2959 Z-1.0 I0.0063 J-0.0108
G2 X44.9297 Y71.2851 Z-1.0333 I-0.0125 J0.0
G2 Y71.3067 Z-1.0667 I0.0062 J0.0108
G2 X44.9484 Y71.2959 Z-1.1 I0.0063 J-0.0108
G2 X44.9297 Y71.2851 Z-1.1333 I-0.0125 J0.0
G2 Y71.3067 Z-1.1667 I0.0062 J0.0108
G2 X44.9484 Y71.2959 Z-1.2 I0.0063 J-0.0108
G2 X44.9297 Y71.2851 Z-1.2333 I-0.0125 J0.0
G2 Y71.3067 Z-1.2667 I0.0062 J0.0108
G2 X44.9484 Y71.2959 Z-1.3 I0.0063 J-0.0108
G2 X44.9297 Y71.2851 Z-1.3333 I-0.0125 J0.0
G2 Y71.3067 Z-1.3667 I0.0062 J0.0108
G2 X44.9484 Y71.2959 Z-1.4 I0.0063 J-0.0108
G2 X44.9297 Y71.2851 Z-1.4333 I-0.0125 J0.0
G2 Y71.3067 Z-1.4667 I0.0062 J0.0108
G2 X44.9484 Y71.2959 Z-1.5 I0.0063 J-0.0108
G2 X44.9297 Y71.2851 Z-1.5333 I-0.0125 J0.0
G2 Y71.3067 Z-1.5667 I0.0062 J0.0108
G2 X44.9484 Y71.2959 Z-1.6 I0.0063 J-0.0108
G2 X44.9297 Y71.2851 Z-1.6333 I-0.0125 J0.0
G2 Y71.3067 Z-1.6667 I0.0062 J0.0108
G2 X44.9484 Y71.2959 Z-1.7 I0.0063 J-0.0108
G2 X44.9297 Y71.2851 Z-1.7333 I-0.0125 J0.0
G2 Y71.3067 Z-1.7667 I0.0062 J0.0108
G2 X44.9484 Y71.2959 Z-1.8 I0.0063 J-0.0108
G2 X44.9297 Y71.2851 Z-1.8333 I-0.0125 J0.0
G2 Y71.3067 Z-1.8667 I0.0062 J0.0108
G2 X44.9484 Y71.2959 Z-1.9 I0.0063 J-0.0108
G2 X44.9297 Y71.2851 Z-1.9333 I-0.0125 J0.0
G2 Y71.3067 Z-1.9667 I0.0062 J0.0108
G2 X44.9484 Y71.2959 Z-2.0 I0.0063 J-0.0108
G2 X44.9297 Y71.2851 Z-2.0333 I-0.0125 J0.0
G2 Y71.3067 Z-2.0667 I0.0062 J0.0108
G2 X44.9484 Y71.2959 Z-2.1 I0.0063 J-0.0108
G2 X44.9297 Y71.2851 Z-2.1333 I-0.0125 J0.0
G2 Y71.3067 Z-2.1667 I0.0062 J0.0108
G2 X44.9484 Y71.2959 Z-2.2 I0.0063 J-0.0108
G2 X44.9297 Y71.2851 Z-2.2333 I-0.0125 J0.0
G2 Y71.3067 Z-2.2667 I0.0062 J0.0108
G2 X44.9484 Y71.2959 Z-2.3 I0.0063 J-0.0108
G2 X44.9297 Y71.2851 Z-2.3333 I-0.0125 J0.0
G2 Y71.3067 Z-2.3667 I0.0062 J0.0108
G2 X44.9484 Y71.2959 Z-2.4 I0.0063 J-0.0108
G2 X44.9297 Y71.2851 Z-2.4333 I-0.0125 J0.0
G2 Y71.3067 Z-2.4667 I0.0062 J0.0108
G2 X44.9484 Y71.2959 Z-2.5 I0.0063 J-0.0108
G2 X44.9297 Y71.2851 Z-2.5333 I-0.0125 J0.0
G2 Y71.3067 Z-2.5667 I0.0062 J0.0108
G2 X44.9484 Y71.2959 Z-2.6 I0.0063 J-0.0108
G2 X44.9297 Y71.2851 Z-2.6333 I-0.0125 J0.0
G2 Y71.3067 Z-2.6667 I0.0062 J0.0108
G2 X44.9484 Y71.2959 Z-2.7 I0.0063 J-0.0108
G2 X44.9297 Y71.2851 Z-2.7333 I-0.0125 J0.0
G2 Y71.3067 Z-2.7667 I0.0062 J0.0108
G2 X44.9484 Y71.2959 Z-2.8 I0.0063 J-0.0108
G2 X44.9297 Y71.2851 Z-2.8333 I-0.0125 J0.0
G2 Y71.3067 Z-2.8667 I0.0062 J0.0108
G2 X44.9484 Y71.2959 Z-2.9 I0.0063 J-0.0108
G2 X44.9297 Y71.2851 Z-2.9333 I-0.0125 J0.0
G2 Y71.3067 Z-2.9667 I0.0063 J0.0108
G2 X44.9484 Y71.2959 Z-3.0 I0.0063 J-0.0108
G2 X44.9297 Y71.2851 Z-3.0333 I-0.0125 J0.0
G2 Y71.3067 Z-3.0667 I0.0063 J0.0108
G2 X44.9484 Y71.2959 Z-3.1 I0.0063 J-0.0108
G2 X44.9297 Y71.2851 Z-3.1333 I-0.0125 J0.0
G2 Y71.3067 Z-3.1667 I0.0063 J0.0108
G2 X44.9484 Y71.2959 Z-3.2 I0.0063 J-0.0108
G2 X44.9297 Y71.2851 I-0.0125 J0.0
G2 Y71.3067 I0.0063 J0.0108
G2 X44.9484 Y71.2959 I0.0062 J-0.0108
G0 Z3.0
G0 X44.9179 Y55.9736
G1 F1000.0 Z0.0
G2 F2000.0 X44.8992 Y55.9628 Z-0.0333 I-0.0125 J0.0
G2 Y55.9845 Z-0.0667 I0.0063 J0.0108
G2 X44.9179 Y55.9736 Z-0.1 I0.0063 J-0.0108
G2 X44.8992 Y55.9628 Z-0.1333 I-0.0125 J0.0
G2 Y55.9845 Z-0.1667 I0.0063 J0.0108
G2 X44.9179 Y55.9736 Z-0.2 I0.0063 J-0.0108
G2 X44.8992 Y55.9628 Z-0.2333 I-0.0125 J0.0
G2 Y55.9845 Z-0.2667 I0.0063 J0.0108
G2 X44.9179 Y55.9736 Z-0.3 I0.0063 J-0.0108
G2 X44.8992 Y55.9628 Z-0.3333 I-0.0125 J0.0
G2 Y55.9845 Z-0.3667 I0.0063 J0.0108
G2 X44.9179 Y55.9736 Z-0.4 I0.0063 J-0.0108
G2 X44.8992 Y55.9628 Z-0.4333 I-0.0125 J0.0
G2 Y55.9845 Z-0.4667 I0.0063 J0.0108
G2 X44.9179 Y55.9736 Z-0.5 I0.0063 J-0.0108
G2 X44.8992 Y55.9628 Z-0.5333 I-0.0125 J0.0
G2 Y55.9845 Z-0.5667 I0.0063 J0.0108
G2 X44.9179 Y55.9736 Z-0.6 I0.0063 J-0.0108
G2 X44.8992 Y55.9628 Z-0.6333 I-0.0125 J0.0
G2 Y55.9845 Z-0.6667 I0.0063 J0.0108
G2 X44.9179 Y55.9736 Z-0.7 I0.0063 J-0.0108
G2 X44.8992 Y55.9628 Z-0.7333 I-0.0125 J0.0
G2 Y55.9845 Z-0.7667 I0.0063 J0.0108
G2 X44.9179 Y55.9736 Z-0.8 I0.0063 J-0.0108
G2 X44.8992 Y55.9628 Z-0.8333 I-0.0125 J0.0
G2 Y55.9845 Z-0.8667 I0.0063 J0.0108
G2 X44.9179 Y55.9736 Z-0.9 I0.0063 J-0.0108
G2 X44.8992 Y55.9628 Z-0.9333 I-0.0125 J0.0
G2 Y55.9845 Z-0.9667 I0.0063 J0.0108
G2 X44.9179 Y55.9736 Z-1.0 I0.0063 J-0.0108
G2 X44.8992 Y55.9628 Z-1.0333 I-0.0125 J0.0
G2 Y55.9845 Z-1.0667 I0.0063 J0.0108
G2 X44.9179 Y55.9736 Z-1.1 I0.0063 J-0.0108
G2 X44.8992 Y55.9628 Z-1.1333 I-0.0125 J0.0
G2 Y55.9845 Z-1.1667 I0.0063 J0.0108
G2 X44.9179 Y55.9736 Z-1.2 I0.0063 J-0.0108
G2 X44.8992 Y55.9628 Z-1.2333 I-0.0125 J0.0
G2 Y55.9845 Z-1.2667 I0.0063 J0.0108
G2 X44.9179 Y55.9736 Z-1.3 I0.0063 J-0.0108
G2 X44.8992 Y55.9628 Z-1.3333 I-0.0125 J0.0
G2 Y55.9845 Z-1.3667 I0.0063 J0.0108
G2 X44.9179 Y55.9736 Z-1.4 I0.0063 J-0.0108
G2 X44.8992 Y55.9628 Z-1.4333 I-0.0125 J0.0
G2 Y55.9845 Z-1.4667 I0.0063 J0.0108
G2 X44.9179 Y55.9736 Z-1.5 I0.0063 J-0.0108
G2 X44.8992 Y55.9628 Z-1.5333 I-0.0125 J0.0
G2 Y55.9845 Z-1.5667 I0.0063 J0.0108
G2 X44.9179 Y55.9736 Z-1.6 I0.0063 J-0.0108
G2 X44.8992 Y55.9628 Z-1.6333 I-0.0125 J0.0
G2 Y55.9845 Z-1.6667 I0.0063 J0.0108
G2 X44.9179 Y55.9736 Z-1.7 I0.0063 J-0.0108
G2 X44.8992 Y55.9628 Z-1.7333 I-0.0125 J0.0
G2 Y55.9845 Z-1.7667 I0.0063 J0.0108
G2 X44.9179 Y55.9736 Z-1.8 I0.0063 J-0.0108
G2 X44.8992 Y55.9628 Z-1.8333 I-0.0125 J0.0
G2 Y55.9845 Z-1.8667 I0.0063 J0.0108
G2 X44.9179 Y55.9736 Z-1.9 I0.0063 J-0.0108
G2 X44.8992 Y55.9628 Z-1.9333 I-0.0125 J0.0
G2 Y55.9845 Z-1.9667 I0.0063 J0.0108
G2 X44.9179 Y55.9736 Z-2.0 I0.0063 J-0.0108
G2 X44.8992 Y55.9628 Z-2.0333 I-0.0125 J0.0
G2 Y55.9845 Z-2.0667 I0.0063 J0.0108
G2 X44.9179 Y55.9736 Z-2.1 I0.0063 J-0.0108
G2 X44.8992 Y55.9628 Z-2.1333 I-0.0125 J0.0
G2 Y55.9845 Z-2.1667 I0.0063 J0.0108
G2 X44.9179 Y55.9736 Z-2.2 I0.0063 J-0.0108
G2 X44.8992 Y55.9628 Z-2.2333 I-0.0125 J0.0
G2 Y55.9845 Z-2.2667 I0.0063 J0.0108
G2 X44.9179 Y55.9736 Z-2.3 I0.0063 J-0.0108
G2 X44.8992 Y55.9628 Z-2.3333 I-0.0125 J0.0
G2 Y55.9845 Z-2.3667 I0.0063 J0.0108
G2 X44.9179 Y55.9736 Z-2.4 I0.0063 J-0.0108
G2 X44.8992 Y55.9628 Z-2.4333 I-0.0125 J0.0
G2 Y55.9845 Z-2.4667 I0.0063 J0.0108
G2 X44.9179 Y55.9736 Z-2.5 I0.0063 J-0.0108
G2 X44.8992 Y55.9628 Z-2.5333 I-0.0125 J0.0
G2 Y55.9845 Z-2.5667 I0.0063 J0.0108
G2 X44.9179 Y55.9736 Z-2.6 I0.0063 J-0.0108
G2 X44.8992 Y55.9628 Z-2.6333 I-0.0125 J0.0
G2 Y55.9845 Z-2.6667 I0.0063 J0.0108
G2 X44.9179 Y55.9736 Z-2.7 I0.0063 J-0.0108
G2 X44.8992 Y55.9628 Z-2.7333 I-0.0125 J0.0
G2 Y55.9845 Z-2.7667 I0.0063 J0.0108
G2 X44.9179 Y55.9736 Z-2.8 I0.0063 J-0.0108
G2 X44.8992 Y55.9628 Z-2.8333 I-0.0125 J0.0
G2 Y55.9845 Z-2.8667 I0.0063 J0.0108
G2 X44.9179 Y55.9736 Z-2.9 I0.0063 J-0.0108
G2 X44.8992 Y55.9628 Z-2.9333 I-0.0125 J0.0
G2 Y55.9845 Z-2.9667 I0.0063 J0.0108
G2 X44.9179 Y55.9736 Z-3.0 I0.0062 J-0.0108
G2 X44.8992 Y55.9628 Z-3.0333 I-0.0125 J0.0
G2 Y55.9845 Z-3.0667 I0.0063 J0.0108
G2 X44.9179 Y55.9736 Z-3.1 I0.0062 J-0.0108
G2 X44.8992 Y55.9628 Z-3.1333 I-0.0125 J0.0
G2 Y55.9845 Z-3.1667 I0.0063 J0.0108
G2 X44.9179 Y55.9736 Z-3.2 I0.0062 J-0.0108
G2 X44.8992 Y55.9628 I-0.0125 J0.0
G2 Y55.9845 I0.0063 J0.0108
G2 X44.9179 Y55.9736 I0.0062 J-0.0108
G0 Z3.0
G0 X44.9471 Y41.3114
G1 F1000.0 Z0.0
G2 F2000.0 X44.9284 Y41.3006 Z-0.0333 I-0.0125 J0.0
G2 Y41.3222 Z-0.0667 I0.0063 J0.0108
G2 X44.9471 Y41.3114 Z-0.1 I0.0063 J-0.0108
G2 X44.9284 Y41.3006 Z-0.1333 I-0.0125 J0.0
G2 Y41.3222 Z-0.1667 I0.0063 J0.0108
G2 X44.9471 Y41.3114 Z-0.2 I0.0063 J-0.0108
G2 X44.9284 Y41.3006 Z-0.2333 I-0.0125 J0.0
G2 Y41.3222 Z-0.2667 I0.0063 J0.0108
G2 X44.9471 Y41.3114 Z-0.3 I0.0063 J-0.0108
G2 X44.9284 Y41.3006 Z-0.3333 I-0.0125 J0.0
G2 Y41.3222 Z-0.3667 I0.0063 J0.0108
G2 X44.9471 Y41.3114 Z-0.4 I0.0063 J-0.0108
G2 X44.9284 Y41.3006 Z-0.4333 I-0.0125 J0.0
G2 Y41.3222 Z-0.4667 I0.0063 J0.0108
G2 X44.9471 Y41.3114 Z-0.5 I0.0063 J-0.0108
G2 X44.9284 Y41.3006 Z-0.5333 I-0.0125 J0.0
G2 Y41.3222 Z-0.5667 I0.0063 J0.0108
G2 X44.9471 Y41.3114 Z-0.6 I0.0063 J-0.0108
G2 X44.9284 Y41.3006 Z-0.6333 I-0.0125 J0.0
G2 Y41.3222 Z-0.6667 I0.0063 J0.0108
G2 X44.9471 Y41.3114 Z-0.7 I0.0063 J-0.0108
G2 X44.9284 Y41.3006 Z-0.7333 I-0.0125 J0.0
G2 Y41.3222 Z-0.7667 I0.0063 J0.0108
G2 X44.9471 Y41.3114 Z-0.8 I0.0063 J-0.0108
G2 X44.9284 Y41.3006 Z-0.8333 I-0.0125 J0.0
G2 Y41.3222 Z-0.8667 I0.0063 J0.0108
G2 X44.9471 Y41.3114 Z-0.9 I0.0063 J-0.0108
G2 X44.9284 Y41.3006 Z-0.9333 I-0.0125 J0.0
G2 Y41.3222 Z-0.9667 I0.0063 J0.0108
G2 X44.9471 Y41.3114 Z-1.0 I0.0063 J-0.0108
G2 X44.9284 Y41.3006 Z-1.0333 I-0.0125 J0.0
G2 Y41.3222 Z-1.0667 I0.0063 J0.0108
G2 X44.9471 Y41.3114 Z-1.1 I0.0063 J-0.0108
G2 X44.9284 Y41.3006 Z-1.1333 I-0.0125 J0.0
G2 Y41.3222 Z-1.1667 I0.0063 J0.0108
G2 X44.9471 Y41.3114 Z-1.2 I0.0063 J-0.0108
G2 X44.9284 Y41.3006 Z-1.2333 I-0.0125 J0.0
G2 Y41.3222 Z-1.2667 I0.0063 J0.0108
G2 X44.9471 Y41.3114 Z-1.3 I0.0063 J-0.0108
G2 X44.9284 Y41.3006 Z-1.3333 I-0.0125 J0.0
G2 Y41.3222 Z-1.3667 I0.0063 J0.0108
G2 X44.9471 Y41.3114 Z-1.4 I0.0063 J-0.0108
G2 X44.9284 Y41.3006 Z-1.4333 I-0.0125 J0.0
G2 Y41.3222 Z-1.4667 I0.0063 J0.0108
G2 X44.9471 Y41.3114 Z-1.5 I0.0063 J-0.0108
G2 X44.9284 Y41.3006 Z-1.5333 I-0.0125 J0.0
G2 Y41.3222 Z-1.5667 I0.0063 J0.0108
G2 X44.9471 Y41.3114 Z-1.6 I0.0063 J-0.0108
G2 X44.9284 Y41.3006 Z-1.6333 I-0.0125 J0.0
G2 Y41.3222 Z-1.6667 I0.0063 J0.0108
G2 X44.9471 Y41.3114 Z-1.7 I0.0063 J-0.0108
G2 X44.9284 Y41.3006 Z-1.7333 I-0.0125 J0.0
G2 Y41.3222 Z-1.7667 I0.0063 J0.0108
G2 X44.9471 Y41.3114 Z-1.8 I0.0063 J-0.0108
G2 X44.9284 Y41.3006 Z-1.8333 I-0.0125 J0.0
G2 Y41.3222 Z-1.8667 I0.0063 J0.0108
G2 X44.9471 Y41.3114 Z-1.9 I0.0063 J-0.0108
G2 X44.9284 Y41.3006 Z-1.9333 I-0.0125 J0.0
G2 Y41.3222 Z-1.9667 I0.0063 J0.0108
G2 X44.9471 Y41.3114 Z-2.0 I0.0063 J-0.0108
G2 X44.9284 Y41.3006 Z-2.0333 I-0.0125 J0.0
G2 Y41.3222 Z-2.0667 I0.0063 J0.0108
G2 X44.9471 Y41.3114 Z-2.1 I0.0063 J-0.0108
G2 X44.9284 Y41.3006 Z-2.1333 I-0.0125 J0.0
G2 Y41.3222 Z-2.1667 I0.0063 J0.0108
G2 X44.9471 Y41.3114 Z-2.2 I0.0063 J-0.0108
G2 X44.9284 Y41.3006 Z-2.2333 I-0.0125 J0.0
G2 Y41.3222 Z-2.2667 I0.0063 J0.0108
G2 X44.9471 Y41.3114 Z-2.3 I0.0063 J-0.0108
G2 X44.9284 Y41.3006 Z-2.3333 I-0.0125 J0.0
G2 Y41.3222 Z-2.3667 I0.0063 J0.0108
G2 X44.9471 Y41.3114 Z-2.4 I0.0063 J-0.0108
G2 X44.9284 Y41.3006 Z-2.4333 I-0.0125 J0.0
G2 Y41.3222 Z-2.4667 I0.0063 J0.0108
G2 X44.9471 Y41.3114 Z-2.5 I0.0063 J-0.0108
G2 X44.9284 Y41.3006 Z-2.5333 I-0.0125 J0.0
G2 Y41.3222 Z-2.5667 I0.0063 J0.0108
G2 X44.9471 Y41.3114 Z-2.6 I0.0063 J-0.0108
G2 X44.9284 Y41.3006 Z-2.6333 I-0.0125 J0.0
G2 Y41.3222 Z-2.6667 I0.0063 J0.0108
G2 X44.9471 Y41.3114 Z-2.7 I0.0063 J-0.0108
G2 X44.9284 Y41.3006 Z-2.7333 I-0.0125 J0.0
G2 Y41.3222 Z-2.7667 I0.0063 J0.0108
G2 X44.9471 Y41.3114 Z-2.8 I0.0063 J-0.0108
G2 X44.9284 Y41.3006 Z-2.8333 I-0.0125 J0.0
G2 Y41.3222 Z-2.8667 I0.0063 J0.0108
G2 X44.9471 Y41.3114 Z-2.9 I0.0063 J-0.0108
G2 X44.9284 Y41.3006 Z-2.9333 I-0.0125 J0.0
G2 Y41.3222 Z-2.9667 I0.0063 J0.0108
G2 X44.9471 Y41.3114 Z-3.0 I0.0062 J-0.0108
G2 X44.9284 Y41.3006 Z-3.0333 I-0.0125 J0.0
G2 Y41.3222 Z-3.0667 I0.0063 J0.0108
G2 X44.9471 Y41.3114 Z-3.1 I0.0062 J-0.0108
G2 X44.9284 Y41.3006 Z-3.1333 I-0.0125 J0.0
G2 Y41.3222 Z-3.1667 I0.0063 J0.0108
G2 X44.9471 Y41.3114 Z-3.2 I0.0062 J-0.0108
G2 X44.9284 Y41.3006 I-0.0125 J0.0
G2 Y41.3222 I0.0063 J0.0108
G2 X44.9471 Y41.3114 I0.0062 J-0.0108
G0 Z3.0
G0 X60.0988 Y124.953
G1 F1000.0 Z0.0
G2 F2000.0 X60.0801 Y124.9422 Z-0.0333 I-0.0125 J0.0
G2 Y124.9638 Z-0.0667 I0.0062 J0.0108
G2 X60.0988 Y124.953 Z-0.1 I0.0063 J-0.0108
G2 X60.0801 Y124.9422 Z-0.1333 I-0.0125 J0.0
G2 Y124.9638 Z-0.1667 I0.0062 J0.0108
G2 X60.0988 Y124.953 Z-0.2 I0.0063 J-0.0108
G2 X60.0801 Y124.9422 Z-0.2333 I-0.0125 J0.0
G2 Y124.9638 Z-0.2667 I0.0062 J0.0108
G2 X60.0988 Y124.953 Z-0.3 I0.0063 J-0.0108
G2 X60.0801 Y124.9422 Z-0.3333 I-0.0125 J0.0
G2 Y124.9638 Z-0.3667 I0.0062 J0.0108
G2 X60.0988 Y124.953 Z-0.4 I0.0063 J-0.0108
G2 X60.0801 Y124.9422 Z-0.4333 I-0.0125 J0.0
G2 Y124.9638 Z-0.4667 I0.0062 J0.0108
G2 X60.0988 Y124.953 Z-0.5 I0.0063 J-0.0108
G2 X60.0801 Y124.9422 Z-0.5333 I-0.0125 J0.0
G2 Y124.9638 Z-0.5667 I0.0062 J0.0108
G2 X60.0988 Y124.953 Z-0.6 I0.0063 J-0.0108
G2 X60.0801 Y124.9422 Z-0.6333 I-0.0125 J0.0
G2 Y124.9638 Z-0.6667 I0.0062 J0.0108
G2 X60.0988 Y124.953 Z-0.7 I0.0063 J-0.0108
G2 X60.0801 Y124.9422 Z-0.7333 I-0.0125 J0.0
G2 Y124.9638 Z-0.7667 I0.0062 J0.0108
G2 X60.0988 Y124.953 Z-0.8 I0.0063 J-0.0108
G2 X60.0801 Y124.9422 Z-0.8333 I-0.0125 J0.0
G2 Y124.9638 Z-0.8667 I0.0062 J0.0108
G2 X60.0988 Y124.953 Z-0.9 I0.0063 J-0.0108
G2 X60.0801 Y124.9422 Z-0.9333 I-0.0125 J0.0
G2 Y124.9638 Z-0.9667 I0.0062 J0.0108
G2 X60.0988 Y124.953 Z-1.0 I0.0063 J-0.0108
G2 X60.0801 Y124.9422 Z-1.0333 I-0.0125 J0.0
G2 Y124.9638 Z-1.0667 I0.0062 J0.0108
G2 X60.0988 Y124.953 Z-1.1 I0.0063 J-0.0108
G2 X60.0801 Y124.9422 Z-1.1333 I-0.0125 J0.0
G2 Y124.9638 Z-1.1667 I0.0062 J0.0108
G2 X60.0988 Y124.953 Z-1.2 I0.0063 J-0.0108
G2 X60.0801 Y124.9422 Z-1.2333 I-0.0125 J0.0
G2 Y124.9638 Z-1.2667 I0.0062 J0.0108
G2 X60.0988 Y124.953 Z-1.3 I0.0063 J-0.0108
G2 X60.0801 Y124.9422 Z-1.3333 I-0.0125 J0.0
G2 Y124.9638 Z-1.3667 I0.0062 J0.0108
G2 X60.0988 Y124.953 Z-1.4 I0.0063 J-0.0108
G2 X60.0801 Y124.9422 Z-1.4333 I-0.0125 J0.0
G2 Y124.9638 Z-1.4667 I0.0062 J0.0108
G2 X60.0988 Y124.953 Z-1.5 I0.0063 J-0.0108
G2 X60.0801 Y124.9422 Z-1.5333 I-0.0125 J0.0
G2 Y124.9638 Z-1.5667 I0.0062 J0.0108
G2 X60.0988 Y124.953 Z-1.6 I0.0063 J-0.0108
G2 X60.0801 Y124.9422 Z-1.6333 I-0.0125 J0.0
G2 Y124.9638 Z-1.6667 I0.0062 J0.0108
G2 X60.0988 Y124.953 Z-1.7 I0.0063 J-0.0108
G2 X60.0801 Y124.9422 Z-1.7333 I-0.0125 J0.0
G2 Y124.9638 Z-1.7667 I0.0062 J0.0108
G2 X60.0988 Y124.953 Z-1.8 I0.0063 J-0.0108
G2 X60.0801 Y124.9422 Z-1.8333 I-0.0125 J0.0
G2 Y124.9638 Z-1.8667 I0.0062 J0.0108
G2 X60.0988 Y124.953 Z-1.9 I0.0063 J-0.0108
G2 X60.0801 Y124.9422 Z-1.9333 I-0.0125 J0.0
G2 Y124.9638 Z-1.9667 I0.0062 J0.0108
G2 X60.0988 Y124.953 Z-2.0 I0.0063 J-0.0108
G2 X60.0801 Y124.9422 Z-2.0333 I-0.0125 J0.0
G2 Y124.9638 Z-2.0667 I0.0062 J0.0108
G2 X60.0988 Y124.953 Z-2.1 I0.0063 J-0.0108
G2 X60.0801 Y124.9422 Z-2.1333 I-0.0125 J0.0
G2 Y124.9638 Z-2.1667 I0.0062 J0.0108
G2 X60.0988 Y124.953 Z-2.2 I0.0063 J-0.0108
G2 X60.0801 Y124.9422 Z-2.2333 I-0.0125 J0.0
G2 Y124.9638 Z-2.2667 I0.0062 J0.0108
G2 X60.0988 Y124.953 Z-2.3 I0.0063 J-0.0108
G2 X60.0801 Y124.9422 Z-2.3333 I-0.0125 J0.0
G2 Y124.9638 Z-2.3667 I0.0062 J0.0108
G2 X60.0988 Y124.953 Z-2.4 I0.0063 J-0.0108
G2 X60.0801 Y124.9422 Z-2.4333 I-0.0125 J0.0
G2 Y124.9638 Z-2.4667 I0.0062 J0.0108
G2 X60.0988 Y124.953 Z-2.5 I0.0063 J-0.0108
G2 X60.0801 Y124.9422 Z-2.5333 I-0.0125 J0.0
G2 Y124.9638 Z-2.5667 I0.0062 J0.0108
G2 X60.0988 Y124.953 Z-2.6 I0.0063 J-0.0108
G2 X60.0801 Y124.9422 Z-2.6333 I-0.0125 J0.0
G2 Y124.9638 Z-2.6667 I0.0062 J0.0108
G2 X60.0988 Y124.953 Z-2.7 I0.0063 J-0.0108
G2 X60.0801 Y124.9422 Z-2.7333 I-0.0125 J0.0
G2 Y124.9638 Z-2.7667 I0.0062 J0.0108
G2 X60.0988 Y124.953 Z-2.8 I0.0063 J-0.0108
G2 X60.0801 Y124.9422 Z-2.8333 I-0.0125 J0.0
G2 Y124.9638 Z-2.8667 I0.0062 J0.0108
G2 X60.0988 Y124.953 Z-2.9 I0.0063 J-0.0108
G2 X60.0801 Y124.9422 Z-2.9333 I-0.0125 J0.0
G2 Y124.9638 Z-2.9667 I0.0063 J0.0108
G2 X60.0988 Y124.953 Z-3.0 I0.0063 J-0.0108
G2 X60.0801 Y124.9422 Z-3.0333 I-0.0125 J0.0
G2 Y124.9638 Z-3.0667 I0.0063 J0.0108
G2 X60.0988 Y124.953 Z-3.1 I0.0063 J-0.0108
G2 X60.0801 Y124.9422 Z-3.1333 I-0.0125 J0.0
G2 Y124.9638 Z-3.1667 I0.0063 J0.0108
G2 X60.0988 Y124.953 Z-3.2 I0.0063 J-0.0108
G2 X60.0801 Y124.9422 I-0.0125 J0.0
G2 Y124.9638 I0.0063 J0.0108
G2 X60.0988 Y124.953 I0.0062 J-0.0108
( cutout )
S1000
G0 Z3.0
G0 X25.1871 Y-1.5165
G1 F1000.0 Z-0.1
G1 F2000.0 X0.0743
G2 X-1.5132 Y0.071 I0.0 J1.5875
G1 Y128.1195
G2 X0.0743 Y129.707 I1.5875 J0.0
G1 X69.6147
G2 X71.2022 Y128.1195 I0.0 J-1.5875
G1 Y0.071
G2 X69.6147 Y-1.5165 I-1.5875 J0.0
G1 X25.1871
G1 F1000.0 Z-0.2
G1 F2000.0 X0.0743
G2 X-1.5132 Y0.071 I0.0 J1.5875
G1 Y128.1195
G2 X0.0743 Y129.707 I1.5875 J0.0
G1 X69.6147
G2 X71.2022 Y128.1195 I0.0 J-1.5875
G1 Y0.071
G2 X69.6147 Y-1.5165 I-1.5875 J0.0
G1 X25.1871
G1 F1000.0 Z-0.3
G1 F2000.0 X0.0743
G2 X-1.5132 Y0.071 I0.0 J1.5875
G1 Y128.1195
G2 X0.0743 Y129.707 I1.5875 J0.0
G1 X69.6147
G2 X71.2022 Y128.1195 I0.0 J-1.5875
G1 Y0.071
G2 X69.6147 Y-1.5165 I-1.5875 J0.0
G1 X25.1871
G1 F1000.0 Z-0.4
G1 F2000.0 X0.0743
G2 X-1.5132 Y0.071 I0.0 J1.5875
G1 Y128.1195
G2 X0.0743 Y129.707 I1.5875 J0.0
G1 X69.6147
G2 X71.2022 Y128.1195 I0.0 J-1.5875
G1 Y0.071
G2 X69.6147 Y-1.5165 I-1.5875 J0.0
G1 X25.1871
G1 F1000.0 Z-0.5
G1 F2000.0 X0.0743
G2 X-1.5132 Y0.071 I0.0 J1.5875
G1 Y128.1195
G2 X0.0743 Y129.707 I1.5875 J0.0
G1 X69.6147
G2 X71.2022 Y128.1195 I0.0 J-1.5875
G1 Y0.071
G2 X69.6147 Y-1.5165 I-1.5875 J0.0
G1 X25.1871
G1 F1000.0 Z-0.6
G1 F2000.0 X0.0743
G2 X-1.5132 Y0.071 I0.0 J1.5875
G1 Y128.1195
G2 X0.0743 Y129.707 I1.5875 J0.0
G1 X69.6147
G2 X71.2022 Y128.1195 I0.0 J-1.5875
G1 Y0.071
G2 X69.6147 Y-1.5165 I-1.5875 J0.0
G1 X25.1871
G1 F1000.0 Z-0.7
G1 F2000.0 X0.0743
G2 X-1.5132 Y0.071 I0.0 J1.5875
G1 Y128.1195
G2 X0.0743 Y129.707 I1.5875 J0.0
G1 X69.6147
G2 X71.2022 Y128.1195 I0.0 J-1.5875
G1 Y0.071
G2 X69.6147 Y-1.5165 I-1.5875 J0.0
G1 X25.1871
G1 F1000.0 Z-0.8
G1 F2000.0 X0.0743
G2 X-1.5132 Y0.071 I0.0 J1.5875
G1 Y128.1195
G2 X0.0743 Y129.707 I1.5875 J0.0
G1 X69.6147
G2 X71.2022 Y128.1195 I0.0 J-1.5875
G1 Y0.071
G2 X69.6147 Y-1.5165 I-1.5875 J0.0
G1 X25.1871
G1 F1000.0 Z-0.9
G1 F2000.0 X0.0743
G2 X-1.5132 Y0.071 I0.0 J1.5875
G1 Y128.1195
G2 X0.0743 Y129.707 I1.5875 J0.0
G1 X69.6147
G2 X71.2022 Y128.1195 I0.0 J-1.5875
G1 Y0.071
G2 X69.6147 Y-1.5165 I-1.5875 J0.0
G1 X25.1871
G1 F1000.0 Z-1.0
G1 F2000.0 X0.0743
G2 X-1.5132 Y0.071 I0.0 J1.5875
G1 Y128.1195
G2 X0.0743 Y129.707 I1.5875 J0.0
G1 X69.6147
G2 X71.2022 Y128.1195 I0.0 J-1.5875
G1 Y0.071
G2 X69.6147 Y-1.5165 I-1.5875 J0.0
G1 X25.1871
G1 F1000.0 Z-1.1
G1 F2000.0 X0.0743
G2 X-1.5132 Y0.071 I0.0 J1.5875
G1 Y128.1195
G2 X0.0743 Y129.707 I1.5875 J0.0
G1 X69.6147
G2 X71.2022 Y128.1195 I0.0 J-1.5875
G1 Y0.071
G2 X69.6147 Y-1.5165 I-1.5875 J0.0
G1 X25.1871
G1 F1000.0 Z-1.2
G1 F2000.0 X0.0743
G2 X-1.5132 Y0.071 I0.0 J1.5875
G1 Y128.1195
G2 X0.0743 Y129.707 I1.5875 J0.0
G1 X69.6147
G2 X71.2022 Y128.1195 I0.0 J-1.5875
G1 Y0.071
G2 X69.6147 Y-1.5165 I-1.5875 J0.0
G1 X25.1871
G1 F1000.0 Z-1.3
G1 F2000.0 X0.0743
G2 X-1.5132 Y0.071 I0.0 J1.5875
G1 Y25.407
G1 Y27.4945 Z-1.2
G1 Y29.582 Z-1.3
G1 Y128.1195
G2 X0.0743 Y129.707 I1.5875 J0.0
G1 X2.4344
G1 X4.5219 Z-1.2
G1 X6.6094 Z-1.3
G1 X69.6147
G2 X71.2022 Y128.1195 I0.0 J-1.5875
G1 Y90.2271
G1 Y88.1396 Z-1.2
G1 Y86.0521 Z-1.3
G1 Y0.071
G2 X69.6147 Y-1.5165 I-1.5875 J0.0
G1 X54.6981
G1 X52.6106 Z-1.2
G1 X50.5231 Z-1.3
G1 X25.1871
G1 F1000.0 Z-1.4
G1 F2000.0 X0.0743
G2 X-1.5132 Y0.071 I0.0 J1.5875
G1 Y25.407
G1 Y27.4945 Z-1.2
G1 Y29.582 Z-1.4
G1 Y128.1195
G2 X0.0743 Y129.707 I1.5875 J0.0
G1 X2.4344
G1 X4.5219 Z-1.2
G1 X6.6094 Z-1.4
G1 X69.6147
G2 X71.2022 Y128.1195 I0.0 J-1.5875
G1 Y90.2271
G1 Y88.1396 Z-1.2
G1 Y86.0521 Z-1.4
G1 Y0.071
G2 X69.6147 Y-1.5165 I-1.5875 J0.0
G1 X54.6981
G1 X52.6106 Z-1.2
G1 X50.5231 Z-1.4
G1 X25.1871
G1 F1000.0 Z-1.5
G1 F2000.0 X0.0743
G2 X-1.5132 Y0.071 I0.0 J1.5875
G1 Y25.407
G1 Y27.4945 Z-1.2
G1 Y29.582 Z-1.5
G1 Y128.1195
G2 X0.0743 Y129.707 I1.5875 J0.0
G1 X2.4344
G1 X4.5219 Z-1.2
G1 X6.6094 Z-1.5
G1 X69.6147
G2 X71.2022 Y128.1195 I0.0 J-1.5875
G1 Y90.2271
G1 Y88.1396 Z-1.2
G1 Y86.0521 Z-1.5
G1 Y0.071
G2 X69.6147 Y-1.5165 I-1.5875 J0.0
G1 X54.6981
G1 X52.6106 Z-1.2
G1 X50.5231 Z-1.5
G1 X25.1871
G1 F1000.0 Z-1.6
G1 F2000.0 X0.0743
G2 X-1.5132 Y0.071 I0.0 J1.5875
G1 Y25.407
G1 Y27.4945 Z-1.2
G1 Y29.582 Z-1.6
G1 Y128.1195
G2 X0.0743 Y129.707 I1.5875 J0.0
G1 X2.4344
G1 X4.5219 Z-1.2
G1 X6.6094 Z-1.6
G1 X69.6147
G2 X71.2022 Y128.1195 I0.0 J-1.5875
G1 Y90.2271
G1 Y88.1396 Z-1.2
G1 Y86.0521 Z-1.6
G1 Y0.071
G2 X69.6147 Y-1.5165 I-1.5875 J0.0
G1 X54.6981
G1 X52.6106 Z-1.2
G1 X50.5231 Z-1.6
G1 X25.1871
G1 F1000.0 Z-1.7
G1 F2000.0 X0.0743
G2 X-1.5132 Y0.071 I0.0 J1.5875
G1 Y25.407
G1 Y27.4945 Z-1.2
G1 Y29.582 Z-1.7
G1 Y128.1195
G2 X0.0743 Y129.707 I1.5875 J0.0
G1 X2.4344
G1 X4.5219 Z-1.2
G1 X6.6094 Z-1.7
G1 X69.6147
G2 X71.2022 Y128.1195 I0.0 J-1.5875
G1 Y90.2271
G1 Y88.1396 Z-1.2
G1 Y86.0521 Z-1.7
G1 Y0.071
G2 X69.6147 Y-1.5165 I-1.5875 J0.0
G1 X54.6981
G1 X52.6106 Z-1.2
G1 X50.5231 Z-1.7
G1 X25.1871
G1 F1000.0 Z-1.8
G1 F2000.0 X0.0743
G2 X-1.5132 Y0.071 I0.0 J1.5875
G1 Y25.407
G1 Y27.4945 Z-1.2
G1 Y29.582 Z-1.8
G1 Y128.1195
G2 X0.0743 Y129.707 I1.5875 J0.0
G1 X2.4344
G1 X4.5219 Z-1.2
G1 X6.6094 Z-1.8
G1 X69.6147
G2 X71.2022 Y128.1195 I0.0 J-1.5875
G1 Y90.2271
G1 Y88.1396 Z-1.2
G1 Y86.0521 Z-1.8
G1 Y0.071
G2 X69.6147 Y-1.5165 I-1.5875 J0.0
G1 X54.6981
G1 X52.6106 Z-1.2
G1 X50.5231 Z-1.8
G1 X25.1871
G1 F1000.0 Z-1.9
G1 F2000.0 X0.0743
G2 X-1.5132 Y0.071 I0.0 J1.5875
G1 Y25.407
G1 Y27.4945 Z-1.2
G1 Y29.582 Z-1.9
G1 Y128.1195
G2 X0.0743 Y129.707 I1.5875 J0.0
G1 X2.4344
G1 X4.5219 Z-1.2
G1 X6.6094 Z-1.9
G1 X69.6147
G2 X71.2022 Y128.1195 I0.0 J-1.5875
G1 Y90.2271
G1 Y88.1396 Z-1.2
G1 Y86.0521 Z-1.9
G1 Y0.071
G2 X69.6147 Y-1.5165 I-1.5875 J0.0
G1 X54.6981
G1 X52.6106 Z-1.2
G1 X50.5231 Z-1.9
G1 X25.1871
G1 F1000.0 Z-2.0
G1 F2000.0 X0.0743
G2 X-1.5132 Y0.071 I0.0 J1.5875
G1 Y25.407
G1 Y27.4945 Z-1.2
G1 Y29.582 Z-2.0
G1 Y128.1195
G2 X0.0743 Y129.707 I1.5875 J0.0
G1 X2.4344
G1 X4.5219 Z-1.2
G1 X6.6094 Z-2.0
G1 X69.6147
G2 X71.2022 Y128.1195 I0.0 J-1.5875
G1 Y90.2271
G1 Y88.1396 Z-1.2
G1 Y86.0521 Z-2.0
G1 Y0.071
G2 X69.6147 Y-1.5165 I-1.5875 J0.0
G1 X54.6981
G1 X52.6106 Z-1.2
G1 X50.5231 Z-2.0
G1 X25.1871
G1 F1000.0 Z-2.1
G1 F2000.0 X0.0743
G2 X-1.5132 Y0.071 I0.0 J1.5875
G1 Y25.407
G1 Y27.4945 Z-1.2
G1 Y29.582 Z-2.1
G1 Y128.1195
G2 X0.0743 Y129.707 I1.5875 J0.0
G1 X2.4344
G1 X4.5219 Z-1.2
G1 X6.6094 Z-2.1
G1 X69.6147
G2 X71.2022 Y128.1195 I0.0 J-1.5875
G1 Y90.2271
G1 Y88.1396 Z-1.2
G1 Y86.0521 Z-2.1
G1 Y0.071
G2 X69.6147 Y-1.5165 I-1.5875 J0.0
G1 X54.6981
G1 X52.6106 Z-1.2
G1 X50.5231 Z-2.1
G1 X25.1871
G1 F1000.0 Z-2.2
G1 F2000.0 X0.0743
G2 X-1.5132 Y0.071 I0.0 J1.5875
G1 Y25.407
G1 Y27.4945 Z-1.2
G1 Y29.582 Z-2.2
G1 Y128.1195
G2 X0.0743 Y129.707 I1.5875 J0.0
G1 X2.4344
G1 X4.5219 Z-1.2
G1 X6.6094 Z-2.2
G1 X69.6147
G2 X71.2022 Y128.1195 I0.0 J-1.5875
G1 Y90.2271
G1 Y88.1396 Z-1.2
G1 Y86.0521 Z-2.2
G1 Y0.071
G2 X69.6147 Y-1.5165 I-1.5875 J0.0
G1 X54.6981
G1 X52.6106 Z-1.2
G1 X50.5231 Z-2.2
G1 X25.1871
G1 F1000.0 Z-2.3
G1 F2000.0 X0.0743
G2 X-1.5132 Y0.071 I0.0 J1.5875
G1 Y25.407
G1 Y27.4945 Z-1.2
G1 Y29.582 Z-2.3
G1 Y128.1195
G2 X0.0743 Y129.707 I1.5875 J0.0
G1 X2.4344
G1 X4.5219 Z-1.2
G1 X6.6094 Z-2.3
G1 X69.6147
G2 X71.2022 Y128.1195 I0.0 J-1.5875
G1 Y90.2271
G1 Y88.1396 Z-1.2
G1 Y86.0521 Z-2.3
G1 Y0.071
G2 X69.6147 Y-1.5165 I-1.5875 J0.0
G1 X54.6981
G1 X52.6106 Z-1.2
G1 X50.5231 Z-2.3
G1 X25.1871
G1 F1000.0 Z-2.4
G1 F2000.0 X0.0743
G2 X-1.5132 Y0.071 I0.0 J1.5875
G1 Y25.407
G1 Y27.4945 Z-1.2
G1 Y29.582 Z-2.4
G1 Y128.1195
G2 X0.0743 Y129.707 I1.5875 J0.0
G1 X2.4344
G1 X4.5219 Z-1.2
G1 X6.6094 Z-2.4
G1 X69.6147
G2 X71.2022 Y128.1195 I0.0 J-1.5875
G1 Y90.2271
G1 Y88.1396 Z-1.2
G1 Y86.0521 Z-2.4
G1 Y0.071
G2 X69.6147 Y-1.5165 I-1.5875 J0.0
G1 X54.6981
G1 X52.6106 Z-1.2
G1 X50.5231 Z-2.4
G1 X25.1871
G1 F1000.0 Z-2.5
G1 F2000.0 X0.0743
G2 X-1.5132 Y0.071 I0.0 J1.5875
G1 Y25.407
G1 Y27.4945 Z-1.2
G1 Y29.582 Z-2.5
G1 Y128.1195
G2 X0.0743 Y129.707 I1.5875 J0.0
G1 X2.4344
G1 X4.5219 Z-1.2
G1 X6.6094 Z-2.5
G1 X69.6147
G2 X71.2022 Y128.1195 I0.0 J-1.5875
G1 Y90.2271
G1 Y88.1396 Z-1.2
G1 Y86.0521 Z-2.5
G1 Y0.071
G2 X69.6147 Y-1.5165 I-1.5875 J0.0
G1 X54.6981
G1 X52.6106 Z-1.2
G1 X50.5231 Z-2.5
G1 X25.1871
G1 F1000.0 Z-2.6
G1 F2000.0 X0.0743
G2 X-1.5132 Y0.071 I0.0 J1.5875
G1 Y25.407
G1 Y27.4945 Z-1.2
G1 Y29.582 Z-2.6
G1 Y128.1195
G2 X0.0743 Y129.707 I1.5875 J0.0
G1 X2.4344
G1 X4.5219 Z-1.2
G1 X6.6094 Z-2.6
G1 X69.6147
G2 X71.2022 Y128.1195 I0.0 J-1.5875
G1 Y90.2271
G1 Y88.1396 Z-1.2
G1 Y86.0521 Z-2.6
G1 Y0.071
G2 X69.6147 Y-1.5165 I-1.5875 J0.0
G1 X54.6981
G1 X52.6106 Z-1.2
G1 X50.5231 Z-2.6
G1 X25.1871
G1 F1000.0 Z-2.7
G1 F2000.0 X0.0743
G2 X-1.5132 Y0.071 I0.0 J1.5875
G1 Y25.407
G1 Y27.4945 Z-1.2
G1 Y29.582 Z-2.7
G1 Y128.1195
G2 X0.0743 Y129.707 I1.5875 J0.0
G1 X2.4344
G1 X4.5219 Z-1.2
G1 X6.6094 Z-2.7
G1 X69.6147
G2 X71.2022 Y128.1195 I0.0 J-1.5875
G1 Y90.2271
G1 Y88.1396 Z-1.2
G1 Y86.0521 Z-2.7
G1 Y0.071
G2 X69.6147 Y-1.5165 I-1.5875 J0.0
G1 X54.6981
G1 X52.6106 Z-1.2
G1 X50.5231 Z-2.7
G1 X25.1871
G1 F1000.0 Z-2.8
G1 F2000.0 X0.0743
G2 X-1.5132 Y0.071 I0.0 J1.5875
G1 Y25.407
G1 Y27.4945 Z-1.2
G1 Y29.582 Z-2.8
G1 Y128.1195
G2 X0.0743 Y129.707 I1.5875 J0.0
G1 X2.4344
G1 X4.5219 Z-1.2
G1 X6.6094 Z-2.8
G1 X69.6147
G2 X71.2022 Y128.1195 I0.0 J-1.5875
G1 Y90.2271
G1 Y88.1396 Z-1.2
G1 Y86.0521 Z-2.8
G1 Y0.071
G2 X69.6147 Y-1.5165 I-1.5875 J0.0
G1 X54.6981
G1 X52.6106 Z-1.2
G1 X50.5231 Z-2.8
G1 X25.1871
G1 F1000.0 Z-2.9
G1 F2000.0 X0.0743
G2 X-1.5132 Y0.071 I0.0 J1.5875
G1 Y25.407
G1 Y27.4945 Z-1.2
G1 Y29.582 Z-2.9
G1 Y128.1195
G2 X0.0743 Y129.707 I1.5875 J0.0
G1 X2.4344
G1 X4.5219 Z-1.2
G1 X6.6094 Z-2.9
G1 X69.6147
G2 X71.2022 Y128.1195 I0.0 J-1.5875
G1 Y90.2271
G1 Y88.1396 Z-1.2
G1 Y86.0521 Z-2.9
G1 Y0.071
G2 X69.6147 Y-1.5165 I-1.5875 J0.0
G1 X54.6981
G1 X52.6106 Z-1.2
G1 X50.5231 Z-2.9
G1 X25.1871
G1 F1000.0 Z-3.0
G1 F2000.0 X0.0743
G2 X-1.5132 Y0.071 I0.0 J1.5875
G1 Y25.407
G1 Y27.4945 Z-1.2
G1 Y29.582 Z-3.0
G1 Y128.1195
G2 X0.0743 Y129.707 I1.5875 J0.0
G1 X2.4344
G1 X4.5219 Z-1.2
G1 X6.6094 Z-3.0
G1 X69.6147
G2 X71.2022 Y128.1195 I0.0 J-1.5875
G1 Y90.2271
G1 Y88.1396 Z-1.2
G1 Y86.0521 Z-3.0
G1 Y0.071
G2 X69.6147 Y-1.5165 I-1.5875 J0.0
G1 X54.6981
G1 X52.6106 Z-1.2
G1 X50.5231 Z-3.0
G1 X25.1871
G1 F1000.0 Z-3.1
G1 F2000.0 X0.0743
G2 X-1.5132 Y0.071 I0.0 J1.5875
G1 Y25.407
G1 Y27.4945 Z-1.2
G1 Y29.582 Z-3.1
G1 Y128.1195
G2 X0.0743 Y129.707 I1.5875 J0.0
G1 X2.4344
G1 X4.5219 Z-1.2
G1 X6.6094 Z-3.1
G1 X69.6147
G2 X71.2022 Y128.1195 I0.0 J-1.5875
G1 Y90.2271
G1 Y88.1396 Z-1.2
G1 Y86.0521 Z-3.1
G1 Y0.071
G2 X69.6147 Y-1.5165 I-1.5875 J0.0
G1 X54.6981
G1 X52.6106 Z-1.2
G1 X50.5231 Z-3.1
G1 X25.1871
G1 F1000.0 Z-3.2
G1 F2000.0 X0.0743
G2 X-1.5132 Y0.071 I0.0 J1.5875
G1 Y25.407
G1 Y27.4945 Z-1.2
G1 Y29.582 Z-3.2
G1 Y128.1195
G2 X0.0743 Y129.707 I1.5875 J0.0
G1 X2.4344
G1 X4.5219 Z-1.2
G1 X6.6094 Z-3.2
G1 X69.6147
G2 X71.2022 Y128.1195 I0.0 J-1.5875
G1 Y90.2271
G1 Y88.1396 Z-1.2
G1 Y86.0521 Z-3.2
G1 Y0.071
G2 X69.6147 Y-1.5165 I-1.5875 J0.0
G1 X54.6981
G1 X52.6106 Z-1.2
G1 X50.5231 Z-3.2
G1 X25.1871
G0 Z3.0
M5
M30
